!!!!SEGMENT: pl-wtm--r-2506_hertz-michal--marsz-uroczysty.krn
!!!cenid: 18xx:3080
!!!COM: Hertz, Michał
!!!COM-rismID:
!!!CDT: 1844/09/28-~1918
!!!CNT: Polish
!!!OTL: Marsz uroczysty
!!!PDT:
!!!AGN:
!!!SMS-siglum: PL-Wtm
!!!SMS-shelfmark: R 2506
!!!SMS-shelfwork: W
!!!SMS-variant:
!!!SMS-altvar:
!!!NIFC-rismSourceID: 1001082603
!!!NIFC-islandoraID:
!!!URL-pdf-islandora:
!!!URL-scan:
!!!ONB-nifc:
!!!OMD: Tempo di Marcia.
!!!AIN: 2 piano
!!!key:
**kern	**dynam	**kern	**dynam
*group1	*	*group1	*
*part2	*part2	*part1	*part1
*staff2	*	*staff1	*
*Ipiano	*	*Ipiano	*
*I"[Piano]	*	*I"[Piano]	*
*clefF4	*	*clefG2	*
*k[]	*	*k[]	*
*C:	*	*C:	*
*M2/2	*	*M2/2	*
*met(c|)	*	*met(c|)	*
=1	=1	=1	=1
!LO:TX:t=P:problem=all\right&colon; global	!	!LO:TX:t=P:problem=all\right&colon; global	!
!	!	!LO:TX:a:B:t=allegro triumfante,.	!LO:DY:rj:color=blue
2r	.	4.c/	p
.	.	16c/LL	.
.	.	16c/JJ	.
4r	.	8c/	.
!	!	!	!LO:HP:color=blue
.	.	8r	<
!LO:TUP:a:problem=klamra łukowa	!	!LO:TUP:b:problem=klamra łukowa	!
12B\L	.	12c/L	.
12B\	.	12c/	.
12B\J	.	12c/J	.
=2	=2	=2	=2
4.A\	.	4.c/ 4.e/	.
16A\LL	.	16c/LL 16e/	.
16A\JJ	.	16c/JJ 16e/	.
4A\	.	4c/ 4e/	.
*tremolo	*	*tremolo	*
!LO:TUP:a	!	!LO:TUP:a	!
12A\L	.	12c/L 12e/	.
12A\	.	12c/ 12e/	.
12A\J	.	12c/J 12e/	.
*Xtremolo	*	*Xtremolo	*
=3	=3	=3	=3
*	*	*^	*
4G#X\	.	4.e/	4c\	.
4r	.	.	4ryy	.
.	.	8c/	.	.
2r	.	8G#X'</L	2ryy	.
.	.	8E'</	.	.
.	.	8G#'</	.	[
.	.	8c'</J	.	.
*	*	*v	*v	*
=4	=4	=4	=4
8r	.	8e'</L	<
8E\L	<	8G#X'</ 8c	.
8G#X\	.	8c'</ 8e	.
8c\J	.	8e'</J 8g#X	.
8e\	.	8g#/ 8cc	.
8r	.	8r	.
4r	[	4r	[[
!!LO:LB:g=original
=5	=5	=5	=5
!	!	!	!LO:DY:color=blue
2r	.	4.c/	p
.	.	16c/LL	.
.	.	16c/JJ	.
4r	.	8c/	.
.	.	8r	.
!LO:TUP:a	!	!LO:TUP:a	!LO:HP:color=blue
12B\L	.	12c/L	<
12B\	.	12c/	.
12B\J	.	12c/J	.
=6	=6	=6	=6
4.A\	.	4.c/ 4.e/	.
16A\LL	.	16c/LL 16e/	.
16A\JJ	.	16c/JJ 16e/	.
4A\	.	4c/ 4e/	.
*tremolo	*	*tremolo	*
!LO:TUP:a	!	!LO:TUP:a	!
12G\L	.	12c/L 12e/	.
12G\	.	12c/ 12e/	.
12G\J	.	12c/J 12e/	.
*Xtremolo	*	*Xtremolo	*
=7	=7	=7	=7
*	*	*^	*
4E\	.	4.g/	4c\	.
4r	.	.	2.ryy	.
.	.	8e/	.	.
2r	.	8c'</L	.	[ <
.	.	8G'</	.	.
.	.	8c'</	.	.
.	.	8e'</J	.	.
*	*	*v	*v	*
=8	=8	=8	=8
8r	.	8g'</L	.
8E\L	.	8G'</ 8c/	.
8G\	.	8c'</ 8e/	.
8c\J	.	8e'</J 8g/	[
8e\	.	8g/ 8cc/	.
8r	.	8r	.
4DD/ 4D/	.	4B/ 4f/ 4g/	fp
!!LO:LB:g=original
=9	=9	=9	=9
*	*	*2\right	*
8CC/ 8C/	.	2g\ 2cc\ 2ee\ 2gg\	.
8r	.	.	.
!LO:TUP:b:problem=klamra łukowa	!	!	!
12CC/L 12C/	.	.	.
12EE/ 12E/	.	.	.
12GG/J 12G/	.	.	.
8.AA/L 8.A/	.	4..e\ 4..g\ 4..cc\ 4..ee\	.
16AAA/K 16AA/	.	.	.
8.AAA/ 8.AA/	.	.	.
16DD/Jk 16D/	.	16f\ 16a\ 16dd\ 16ff\	.
=10	=10	=10	=10
*^	*	*	*
*	*2\right	*	*	*
4ryy	2.DD\ 2.D\	.	2.f\ 2.a\ 2.dd\ 2.ff\	.
*Xtuplet	*	*	*	*
!LO:TUP:b:problem=klamra łukowa	!	!	!	!
12F/L	.	.	.	.
12A/	.	.	.	.
12d/J	.	.	.	.
8f/	.	.	.	.
8ryy	.	.	.	.
4ryy	8.FF\L 8.F\	.	8.d\L 8.a\ 8.dd\	.
.	16EE\Jk 16E\	.	16e\Jk 16g#X\ 16b\ 16ee\	.
*v	*v	*	*	*
=11	=11	=11	=11
12EE/L 12E/	.	4e\ 4g#X\ 4b\ 4ee\	.
12FF#X/ 12F#X/	.	.	.
12GG#X/J 12G#X/	.	.	.
8.AA/L 8.A/	.	8.e\L 8.a\ 8.cc\	.
16FFn/Jk 16Fn/	.	16d\Jk 16a\ 16dd\	.
4FF/ 4F/	.	4d\ 4a\ 4dd\	.
8.FF/L 8.F/	.	8.d/L 8.a/	.
16DD/Jk 16D/	.	16B/Jk 16f/ 16a/ 16b/	.
=12	=12	=12	=12
4.EE/ 4.E/	.	4B/ 4e/ 4g#X/ 4b/	.
.	.	4G#X/ 4B/ 4e/	.
16EE/LL 16E/	.	.	.
16EE/JJ 16E/	.	.	.
8EE/L 8E/	.	4r	.
8FF/ 8F/	.	.	.
8EE/ 8E/	.	4B/ 4f/ 4gn/	.
8DD/J 8D/	.	.	.
!!LO:LB:g=original
=13	=13	=13	=13
8CC/ 8C/	.	2g\ 2cc 2ee 2gg	.
8r	.	.	.
*tuplet	*	*	*
!LO:TUP:b:problem=klamra łukowa	!	!	!
12CC/L 12C/	.	.	.
12EE/ 12E/	.	.	.
12GG/J 12G/	.	.	.
8.AA/L 8.A/	.	4..e\ 4..a\ 4..cc\ 4..ee\	.
16AAA/K 16AA/	.	.	.
8.AAA/ 8.AA/	.	.	.
16DD/Jk 16D/	.	16f\ 16a\ 16dd\ 16ff\	.
=14	=14	=14	=14
*^	*	*	*
4ryy	2.DD\ 2.D\	.	2.f\ 2.a\ 2.dd\ 2.ff\	.
!LO:TUP:b:problem=klamra łukowa	!	!	!	!
12F/L	.	.	.	.
12A/	.	.	.	.
12d/J	.	.	.	.
8f/	.	.	.	.
8ryy	.	.	.	.
4ryy	8.FF\L 8.F\	.	8.d/L 8.a/ 8.cc/ 8.dd/	.
.	16EE\Jk 16E\	.	16e/Jk 16g#X/ 16b/ 16ee/	.
*v	*v	*	*	*
=15	=15	=15	=15
*	*	*^	*
*	*	*	*^	*
!LO:TUP:b:problem=klamra łukowa	!	!	!	!	!
12EE/L 12E/	.	4e/ 4g#X/ 4b/ 4ee/	2ryy	2ryy	.
12FF#X/ 12F#X/	.	.	.	.	.
12GG#X/J 12G#X/	.	.	.	.	.
8.AA/L 8.A/	.	8.e/L 8.a/ 8.cc/	.	.	.
16FFn/Jk 16Fn/	.	16d/Jk 16a/ 16dd/	.	.	.
!LO:TUP:b:problem=klamra łukowa	!	!LO:TUP:a:problem=klamra łukowa	!	!	!
12FF/L 12F/	.	4dd/	12a\L	4d\	.
12EE/ 12E/	.	.	12g#\	.	.
12DD/J 12D/	.	.	12f\J	.	.
8.DD/L 8.D/	.	8.c/L 8.f/ 8.a/	4ryy	4ryy	.
16GG#/Jk 16G#/	.	16d/Jk 16f/ 16gn/ 16b/	.	.	.
*	*	*v	*v	*v	*
=16	=16	=16	=16
(<4GG/ (>4G/	.	(<4d/ (>4f/ [>4g/ (>4b/	.
8CC/L) 8C)/	.	8c/))) 8e/ 8g]/ 8cc/	.
16GG/L	.	8r	.
16GG/JJ	.	.	.
8CC/L 8C	.	8r	.
8GG/	.	16G/LL	.
.	.	16G/JJ	.
8EE/ 8E/	.	8c/L	.
8CC/J 8C/	.	16e/L 16g/ 16cc/	.
.	.	16e/JJ 16g/ 16cc/	.
!!LO:PB:g=original
=17	=17	=17	=17
*^	*	*	*
!	!	!	!	!LO:DY:rj
8.GG/L 8.G/	4ryy	.	(>8.d/L 8.g/ 8.b/ 8.dd/	f
16EE/Jk 16E/	.	.	16e/Jk) 16g#X/ 16b/ 16ee/	.
!LO:TUP:a:problem=klamra łukowa	!	!	!LO:S:n=1:n=2:color=blue	!
!	!	!	!LO:T:color=blue	!
12E/L	4EE\	.	[<4e/ (<4g#/ (<4b/ (>4ee/	.
12G#X/	.	.	.	.
12B/J	.	.	.	.
!	!	!LO:DY:rj:color=blue	!	!
8CC/L 8C	2ryy	sf	8e/L] 8a)/ 8ee)/	.
8AA/ 8A	.	.	(>8c/ 8e/ 8a/ 8cc/	.
8AA/ 8A	.	.	8c/ 8e/ 8a/ 8cc/	.
8FF/J 8F	.	.	8d/J) 8a/ 8cc/ 8dd/	.
=18	=18	=18	=18	=18
*	*	*	*^	*
8.GG/L 8.F/	4ryy	.	(>8.d/L 8.a/ 8.cc/ 8.dd/	2ryy	.
16EE/Jk 16E/	.	.	16e/Jk 16g#X/ 16b/ 16ee/	.	.
*Xtuplet	*	*	*	*	*
!	!	!	!LO:T:color=blue	!	!
!LO:TUP:b:problem=klamra łukowa	!	!	!LO:S:n=1:color=blue	!	!
12E/L	4EE\	.	[<4e/ (<4g#/ 4b/ (>[<4ee/	.	.
12G#X/	.	.	.	.	.
12B/J	.	.	.	.	.
!	!	!LO:DY:rj:color=blue	!	!	!
8CC/L 8C	2ryy	sf	8e/L]))) 8a/ 8ee]/	8e\L	.
8AA/ 8A	.	.	8c/J 8e/ 8a/ 8cc/	8c\J	.
*	*	*	*	*Xtuplet	*
!	!	!	!LO:TUP:a:problem=klamra łukowa	!	!
8AA/ 8A/	.	.	12c/L 12e/ 12a/ 12cc/	12c\L	.
.	.	.	12c/@ 12e@/ 12a@/ 12cc/	12c@\	.
8FF/J 8F/ 8A/ 8d/	.	.	.	.	.
.	.	.	12d/J 12a 12dd	12d\J	.
*v	*v	*	*	*	*
*	*	*v	*v	*
=19	=19	=19	=19
(<8.FF/L 8.F/	.	(>8.d/L 8.a/ 8.dd/	.
16AA/K) 16A/	.	16c/K) 16e/ 16a/ 16cc/	.
(<8.AA/ 8.A/	.	(>8c/ 8e/ 8a/ 8cc/	.
.	.	8d/J) 8a/ 8dd/	.
16FF/Jk) 16F/	.	.	.
!LO:TUP:b:problem=klamra łukowa	!	!LO:TUP:a:problem=klamra łukowa	!
(<12FF/L 12F/	.	(>12d/L 12a/ 12dd/	.
12AA/ 12A/	.	12c/ 12e/ 12a/ 12cc/	.
12FF/J) 12F/	.	12d/J) 12a/ 12dd/	.
!LO:TUP:b:problem=klamra łukowa	!	!LO:TUP:a:problem=klamra łukowa	!
(<12EE/L 12E/	.	(>12e/L 12a 12cc 12ee	.
12DD/ 12D/	.	12f/ 12a/ 12cc/ 12ff/	.
12FF/J) 12F/	.	12d/J) 12a/ 12cc/ 12dd/	.
=20	=20	=20	=20
4.EE/ 4.E/	.	(>4e/ 4g#X/ 4b/ 4ee/	.
.	.	4B/) 4e/ 4g#/ 4b/	.
16EE/LL 16E/	.	.	.
16EE/JJ 16E/	.	.	.
8FF/L 8F/	.	4r	.
8EE/ 8E/	.	.	.
8DD/ 8D#X/	.	8r	.
8EE/J 8E/	.	8B/ 8e/ 8g#/ 8b/	.
!!LO:LB:g=original
=21	=21	=21	=21
8.AA/L 8.A/	.	8.c/L 8.e/ 8.a/ 8.cc/	.
16FF/Jk 16F/	.	16d/Jk 16a/ 16dd/	.
12FF/L 12F/	.	(<4d/ [<4a/ [>4dd/	.
12A/	.	.	.
12d/J	.	.	.
!	!LO:DY:rj:color=blue	!	!
8DD/L 8D/	sf	8f/L) 8a]/ 8dd]/	.
8FF/ 8F/	.	8A/ 8d/ 8a/	.
8FF/ 8F/	.	8A/ 8d/ 8a/	.
8EE/J 8E/	.	8B/J 8e/ 8g#X/ 8b/	.
=22	=22	=22	=22
*	*	*^	*
8.AA/L 8.A/	.	8.c/L 8.e/ 8.a/ 8.cc/	2ryy	.
16FF/Jk 16F/	.	16d/Jk 16a/ 16dd/	.	.
*tuplet	*	*	*	*
!LO:TUP:b:problem=klamra łukowa	!	!LO:S:color=blue	!	!
12FF/L 12F/	.	(<4d/ [>4a [>4dd	.	.
12A/	.	.	.	.
12d/J	.	.	.	.
!	!LO:DY:rj:color=blue	!	!	!
8DD/L 8D/	sf	8f/L) 8a]/ 8dd]/	8f\L	.
8FF/ 8F/	.	8A/J 8d/ 8a/	8A\J	.
*	*	*tuplet	*	*
!	!	!LO:TUP:a:problem=klamra łukowa	!	!
8FF/ 8F/	.	12A/L 12d/ 12a/	12A\L	.
.	.	12A/ 12d/ 12a/	12A\	.
8EE/J 8E/	.	.	.	.
.	.	12B/J 12e/ 12g#X/ 12b/	12B\J	.
*	*	*v	*v	*
=23	=23	=23	=23
8.AA/L 8.A/	.	(<8.c/L 8.e/ 8.a/ 8.cc/	.
16DD/K 16D/	.	16B/K) 16f/ 16a/ 16b/	.
8.DD/ 8.D/	.	(<8.B/@ 8.f/ 8.a/ 8.b/	.
16AA/Jk 16A/	.	16c/Jk) 16e/ 16a/ 16cc/	.
*Xtuplet	*	*Xtuplet	*
!LO:TUP:b:problem=klamra łukowa	!	!LO:TUP:a:problem=klamra łukowa	!
(<12AA/L 12A/	.	(>12c/L 12e/ 12a/ 12cc/	.
12DD/ 12D/	.	12B/ 12f/ 12a/ 12b/	.
12AA/J 12A)/	.	12c/J) 12e/ 12a/ 12cc/	.
!LO:TUP:b:problem=klamra łukowa	!	!LO:TUP:a:problem=klamra łukowa	!
(<12FF/L 12F/	.	(>12d/L 12a/ 12dd/	.
12CC/ 12C/	.	12e/ 12a/ 12ee/	.
12DD/J) 12D/	.	12c/J) 12f/ 12a/	.
=24	=24	=24	=24
(<4DD#X/ 4D#X/	.	(<4c/ 4f#X/ 4a/ (>4cc/	.
!LO:TUP:b:problem=klamra łukowa	!	!	!
12EE/L 12E/	.	8B/) 8g 8b)	.
12FF#X/ 12F#X/	.	.	.
.	.	8r	.
12GG#X/J) 12G#X/	.	.	.
(<4EE#X/ 4E#X/	.	(<4d/ 4g#X/ 4b/ (>4dd/	.
!LO:TUP:b:problem=klamra łukowa	!	!	!
12FF#/L 12F#/	.	8c#X/) 8a 8cc#X)/	.
12GG#/ 12G#/	.	.	.
.	.	8r	.
12AA/J) 12A/	.	.	.
!!LO:LB:g=original
=25	=25	=25	=25
4GG\ 4G\	.	4e/ 4a#X/ 4cc#X/ [>4ee/	.
!	!	!LO:TUP:b:note=na niebiesko:problem=klamra łukowa	!
[<4GGG/ [>4GG	.	12e/L 12ee]/	.
.	.	12d#X/ 12dd#X/	.
.	.	12c#X/J 12cc#/	.
(<12GGG/L] 12GG]/	.	4e/ 4a#/ 4cc#/ 4ee/	.
12GGG/ 12GG/	.	.	.
12AAA#X/J 12AA#X/	.	.	.
12CC#X/L 12C#X/	.	8r	.
12EE/ 12E/	.	.	.
.	.	8e/ 8a#/ 8cc#/ 8ee/	.
12GG/J 12G/	.	.	.
=26	=26	=26	=26
4AA#X/) 4A#X/	.	[<4g\ 4cc#X\ 4ee\ [>4gg\	.
!	!	!LO:TUP:a:note=na niebiesko:problem=klamra łukowa	!
[<4AAA#X/ [>4AA#X/	.	12g\L] 12gg]\	.
.	.	12f#X\ 12ff#X\	.
.	.	12e\J 12ee\	.
12AAA#/L] 12AA#]/	.	4g\ 4cc#\ 4ee\ 4gg\	.
(<12AAA#/ 12AA#/	.	.	.
12CC#X/J 12C#X/	.	.	.
12EE/L 12E/	.	8r	.
12GG/ 12G/	.	.	.
.	.	8g\ 8cc#\ 8ee\ 8gg\	.
12AA#/J 12A#/	.	.	.
=27	=27	=27	=27
8BB\L) 8B\	.	4g#X\ 4b\ 4ee\ 4gg#X\	ff
8E\ 8e\	.	.	.
!	!	!LO:S:color=blue	!
8.C#X\ 8.c#X\	.	(>8.e\L 8.g#\ 8.ee\	.
16AA\Jk 16A\	.	16cc#X\Jk 16ee\ 16ccc#X\	.
8AA\L 8A\	.	4.cc#\) 4.ee\ 4.ccc#\	.
8GG#X\ 8G#X\	.	.	.
8FF##X\ 8F##X\	.	.	.
8GG#\J 8G#\	.	8b\ 8ee\ 8bb\	.
=28	=28	=28	=28
!	!	!LO:S:color=blue	!
4GG#X\ 4G#X\	.	(>8b\L 8ee\ 8bb\	.
.	.	8g#X\ 8gg#X	.
8.C#X\L 8.c#X\	.	8.e\ 8.g#\ 8.ee\	.
16FF#X\Jk 16F#X\	.	16a\Jk) 16cc#X\ 16aa\	.
!	!	!LO:S:color=blue	!
8FF#\L 8F#\	.	(<4.a\ 4.cc#\ (>4.aa\	.
8C#X\	.	.	.
8EE\ 8E\	.	.	.
8C#\J	.	8g#\) 8cc#\ 8gg#)\	.
!!LO:LB:g=original
=29	=29	=29	=29
8EE-X\L 8E-X\	.	4a-X\ 4ccn\ 4aa-X\	.
8C\ 8c\	.	.	.
!	!	!LO:S:color=blue	!
8.AA\ 8.A\	.	(>8.e-X\L 8.cc\ 8.ee-X\	.
16EE-\Jk 16E-\	.	16cc\Jk) 16ee-\ 16ccc\	.
!	!	!LO:S:color=blue	!
8EE-/L 8E-/	.	(<4.cc\ 4.ee-\ (>4.ccc\	.
8DD-X/ 8D-X/	.	.	.
8CC/ 8C/	.	.	.
8DD-/J 8D-/	.	8b-X\) 8ee-\ 8bb-X)\	.
=30	=30	=30	=30
4..CC/ 4..C/	.	8b-X\L 8ee-X\ 8bb-X\	.
.	.	8a-X\ 8ee-\ 8aa-X\	.
.	.	8.cc\ 8.ee-\ 8.ccc\	.
16BBB-X/ 16BB-X/	.	16ee-X\Jk 16ff\ 16eee-X\	.
8BBB-/L 8BB-/	.	4ee-\ 4ff\ 4eee-\	.
8AAA/ 8AA/	.	.	.
8BBB-/ 8BB-/	.	8ryy	.
8FF/J 8F/	.	8dd-X\ 8ff\ 8ddd-X\	.
=31	=31	=31	=31
!LO:TX:t=P:LO:N:vis=4:problem	!	!	!
4.FF#X/ 4.F#X/	.	[<4cc\ 4ee-X\ [>4ccc\	f
!	!	!LO:TUP:a:note=na niebiesko:problem=klamra łukowa	!
.	.	12cc\L] 12ccc]\	<
.	.	12b\ 12bb\	.
[<8FFF#X/ [>8FF#/	.	.	.
.	.	12a\J 12aa\	.
!LO:TUP:b:problem=klamra łukowa, przez dwie triole	!	!	!
(<12FFF#/L] 12FF#]/	.	4cc\ 4ee-\ 4aa\ 4ccc\	.
12FFF#/ 12FF#/	.	.	.
12AAA/J 12AA/	.	.	.
12CC/L 12C/	.	8r	.
12EE-X/ 12E-X/	.	.	.
.	.	8cc\ 8ee-\ 8aa\ 8ccc\	[[
12FF#/J) 12F#/	.	.	.
=32	=32	=32	=32
(<4AA/ (>4A/	.	[<4ee-X\ 4gg-X\ 4ccc\ [>4eee-X\	<
!	!	!LO:TUP:a:note=na niebiesko:problem=klamra łukowa	!
[<4AAA/) [>4AA)/	.	12ee-\L] 12eee-]\	.
.	.	12dd\ 12ddd\	.
.	.	12cc\J 12ccc\	.
12AAA/L] 12AA]/	.	4ee-\ 4gg-\ 4ccc\ 4eee-\	.
12AAA/ 12AA/	.	.	.
12CC/J 12C/	.	.	.
12EE-X/L 12E-X/	.	8r	.
12FF#X/ 12F#X/	.	.	.
.	.	8e-y\ 8g-X\ 8cc\ 8ee-\	[[
12AA/J 12A/	.	.	.
!!LO:LB:g=original
=33	=33	=33	=33
8GG\L 8G	.	4en\ 4gn 4cc 4een	ff
8C\ 8c	.	.	.
8AA\ 8A	.	8.c\L 8.e 8.cc	.
8GG\J 8G	.	.	.
.	.	16a\Jk 16cc 16aa	.
8FF/L 8F	.	4.a\ 4.cc 4.aa	.
8EE/ 8E	.	.	.
8DD/ 8D	.	.	.
8EE/J 8E	.	8g\ 8cc 8gg	.
=34	=34	=34	=34
4EE/ 4E	.	8g\L 8cc 8gg	.
.	.	8e\ 8g 8ee	.
8.AA/L 8.A	.	8.c\ 8.e 8.cc	.
16DD/Jk 16D	.	16f\Jk 16a 16ff	.
8DD/L 8D	.	4f\ 4a 4ff	.
8AA/	.	.	.
8CC/ 8C	.	4e\ 4a 4ee	.
8AA/J	.	.	.
=35	=35	=35	=35
[<4FF/ [>4F	.	8.e\L 8.a 8.ee	.
.	.	16d\Jk 16a 16dd	.
8.FF/L] 8.F]	.	[<4d\ [>4a [>4dd	.
16EE/Jk 16E	.	.	.
4FF/ 4F	.	8d\L] 8a] 8dd]	.
.	.	8e\ 8ee	.
4F\ 4A 4d	.	8f\ 8ff	.
.	.	8a\J 8aa	.
=36	=36	=36	=36
[<4DD/ [>4D	.	8.g\L 8.a 8.gg	.
.	.	16f\Jk 16a 16ff	.
8.DD/L] 8.D]	.	[<4f\ [>4a [>4ff	.
16CC#X/Jk 16C#X	.	.	.
4DD/ 4D	.	8f\L] 8a] 8ff]	.
.	.	8g\ 8gg	.
4F\ 4A 4d	.	8a\ 8dd 8aa	.
.	.	8dd\J 8aa 8ddd	.
!!LO:LB:g=original
=37	=37	=37	=37
*^	*	*^	*
8.r	2GG\ 2G	.	2dd/	8cc\L 8ccc	.
.	.	.	.	8b\ 8bb	.
16G/ 16B 16f	.	.	.	.	.
4G/ 4B 4f	.	.	.	8a#X\ 8aa#X	.
.	.	.	.	[<8b\J [>8bb	.
*	*	*	*tuplet	*	*
!	!	!	!LO:TUP:a:problem=klamra łukowa	!	!
8.r	2GG#X\ 2G#X	.	2ryy	12b\L] 12bb]	.
.	.	.	.	12cc\ 12ccc	.
.	.	.	.	12cc#X\ 12ccc#X	.
16G#/ 16B 16f	.	.	.	.	.
!	!	!	!LO:TUP:a:problem=klamra łukowa	!	!
4G#/ 4B 4f	.	.	.	12dd\ 12ddd	.
.	.	.	.	12ff\ 12fff	.
.	.	.	.	24r	.
.	.	.	.	24ee\Jk 24eee	.
=38	=38	=38	=38	=38	=38
8.r	2AA\ 2A	.	2ee/	(>8dd\L 8ddd	.
.	.	.	.	8cc\ 8ccc	.
16A/ 16c 16e	.	.	.	.	.
4A/ 4c 4e	.	.	.	8b\ 8bb	.
.	.	.	.	8cc\J) 8ccc	.
*	*	*	*Xtuplet	*	*
!	!	!	!LO:TUP:a:problem=klamra łukowa	!	!
8.r	2BB\ 2B	.	2ryy	12cc#X\L 12ccc#X	.
.	.	.	.	12dd\ 12ddd	.
.	.	.	.	12ee\ 12eee	.
16B/ 16d 16f 16g	.	.	.	.	.
!	!	!	!LO:TUP:a:problem=klamra łukowa	!	!
4B/ 4d 4f 4g	.	.	.	12ff\ 12fff	.
.	.	.	.	12aa\ 12aaa	.
.	.	.	.	24r	.
.	.	.	.	24gg\Jk 24ggg	.
*	*	*	*v	*v	*
=39	=39	=39	=39	=39
8c/L	4C\	.	(>8.ff\L 8.gg 8.fff	.
8G/ 8c 8e 8g	.	.	.	.
.	.	.	16ee\Jk) 16eee	.
!	!	!	!LO:TX:b:t=ri-te-nu-to:dur=7q:ext=ud:problem=text with extention lines	!
!	!	!	!LO:TUP:a:problem=klamra łukowa	!
8GG#X/ 8G#X	4GG#\	.	12ee\L	.
.	.	.	12bb\ 12bbb	.
8G#/J 8B 8f	.	.	.	.
.	.	.	24r	.
.	.	.	24dd\Jk 24ddd	.
8A/L	4AA\	.	(>8dd\L 8ee 8ddd	.
8E/ 8A 8c 8e	.	.	8cc\) 8ccc	.
8E/	4EE\	.	8cc'>\ 8ccc	.
8E/J 8Gn 8c 8e	.	.	8b-X'>\J 8bb-X	.
=40	=40	=40	=40	=40
8F/L	4FF\	.	(>8.b-X\L 8.cc 8.bb-X	.
8F/ 8A 8c 8f	.	.	.	.
.	.	.	16a\Jk) 16aa	.
!	!	!	!LO:TUP:a:problem=klamra łukowa	!
8C#X/	4CC#X\	.	12a\L 12aa	.
.	.	.	12ee\ 12eee	.
8G/J 8A 8e	.	.	.	.
.	.	.	24r	.
.	.	.	24g\Jk 24gg	.
8r	4DD\ 4D	.	(>8g\L 8a 8gg	.
8A/ 8d 8f	.	.	8f\) 8ff	.
4ryy	8EE\L 8E	.	8e'>\ 8a 8ee	.
.	8FF\J 8F	.	8d'>\J 8dd	.
!!LO:PB:g=original
=41	=41	=41	=41	=41
!	!	!	!LO:TX:a:t=piu mosso	!
!	!LO:S:color=blue	!	!LO:S:color=blue	!
1G [>1c	(>8E\L	.	(>4.g\ 4.cc 4.gg	.
.	8D\	.	.	.
.	8C\	.	.	.
.	8D\J	.	8ee\	.
.	[<2E\)	.	8cc\L	.
.	.	.	8g\	.
.	.	.	8cc\	.
.	.	.	8ee\J	.
=42	=42	=42	=42	=42
8G/L 8c]	2.E\]	.	4.g\) 4.cc 4.gg	.
!LO:S:color=blue	!	!	!	!
(<8G/	.	.	.	.
8E/	.	.	.	.
8G/J	.	.	8f#X\ 8cc 8ff#X	.
4c/)	.	.	4g\ 4cc 4gg	.
4E\ 4G#X 4c	4ryy	.	4g#X\ 4cc 4gg#X	.
*v	*v	*	*	*
=43	=43	=43	=43
!LO:S:color=blue	!	!LO:S:color=blue	!
(<4.F\ 4.A 4.c	.	(>8a\L 8cc 8aa	.
.	.	8b-X\ 8bb-X	.
.	.	8bn\ 8bbn	.
8C/	.	8cc\J 8ccc	.
8AA/L	.	8ff\) 8fff	.
8FF/	.	8r	.
8AA/	.	8r	.
8C/J)	.	8a\ 8cc 8aa	.
=44	=44	=44	=44
*^	*	*^	*
2.A/ 2.c	4.F\	.	2.aa/	8a\L 8cc	.
.	.	.	.	8a\	.
.	.	.	.	8f\	.
.	8E\	.	.	8a\J	.
.	4F\	.	.	4cc\	.
4c#X/	4F\ 4A	.	4ryy	4a\ 4cc#X 4aa	.
*	*	*	*v	*v	*
!!LO:LB:g=original
=45	=45	=45	=45	=45
!	!LO:S:color=blue	!	!LO:S:color=blue	!
1A [>1d	(>8F#X\L	.	(>4.a\ 4.dd 4.aa	.
.	8E\	.	.	.
.	8D\	.	.	.
.	8E\J	.	8ff#X\	.
.	[<2F#\)	.	8dd\L	.
.	.	.	8a\	.
.	.	.	8dd\	.
.	.	.	8ff#\J)	.
*v	*v	*	*	*
=46	=46	=46	=46
2.F#\] 2.A 2.d]	.	4.a\ 4.dd 4.aa	.
.	.	8g#X\ 8dd 8gg#X	.
.	.	4a\ 4dd 4aa	.
4F#X\ 4A#X 4d	.	4a#X\ 4dd 4aa#X	.
=47	=47	=47	=47
!LO:S:color=blue	!	!LO:S:color=blue	!
(>4.G\ 4.B 4.d	.	(>8b\L 8bb	.
.	.	8cc\ 8ccc	.
.	.	8cc#X\ 8ccc#X	.
8D\	.	8dd\J 8ddd	.
8BB\L	.	8gg\) 8ggg	.
8GG\	.	8r	.
8BB\	.	8r	.
8D\J)	.	8b\ 8dd 8bb	.
=48	=48	=48	=48
*^	*	*	*
!	!LO:S:color=blue	!	!	!
2.B/ 2.d	(<4.G\	.	2.b\ 2.dd 2.bb	.
.	8F#X\	.	.	.
.	4G\)	.	.	.
4B/ 4d#X	4G\	.	4b\ 4dd#X 4bb	.
!!LO:LB:g=original
=49	=49	=49	=49	=49
!	!	!	!LO:S:color=blue	!
[>1B [>1e	8G#X\L	.	(>4.b\ 4.ee 4.bb	.
!	!LO:S:color=blue	!	!	!
.	(<8F#X\	.	.	.
.	8E\	.	.	.
.	8F#\J	.	8gg#X\	.
.	[<2G#\)	.	8ee\L	.
.	.	.	8b\	.
.	.	.	8ee\	.
.	.	.	8gg#\J	.
*v	*v	*	*	*
=50	=50	=50	=50
4.G#\] 4.B] 4.e]	.	4.b\) 4.ee 4.bb	.
8G#X\ 8B 8e#X	.	8b#X\ 8ee 8bb#X	.
!	!	!LO:TX:b:t=ac-cel-le-ran:dur=26q:ext=ud:problem=text with extention lines	!
4A\ 4c#X 4e#	.	4cc#X\ 4ee 4ccc#X	.
4A\ 4c# 4e#X	.	4cc#\ 4ee#X 4ccc#	.
=51	=51	=51	=51
*^	*	*	*
!	!	!	!LO:S:color=blue	!
[>1c#X [>1f#X	8A#X\L	.	(>4.cc#X\ 4.ff#X 4.ccc#X	.
.	8G#X\	.	.	.
.	8F\	.	.	.
.	8G#\J	.	8aa#X\	.
.	[<2A#\	.	8ff#\L	.
.	.	.	8cc#\	.
.	.	.	8ff#\	.
.	.	.	8aa#\J)	.
*v	*v	*	*	*
=52	=52	=52	=52
4.A#\] 4.c#] 4.f#]	.	4.cc#X\ 4.ff#X 4.ccc#X	.
8A#X\ 8c##X 8f#X	.	8cc##X\ 8ff# 8ccc##X	.
4B\ 4d#X 4f#	.	4dd#X\ 4ff# 4ddd#X	.
4B\ 4d# 4f##X	.	4dd#\ 4ff##X 4ddd#	.
!!LO:LB:g=original
=53	=53	=53	=53
*^	*	*	*
!	!LO:S:color=blue	!	!LO:S:color=blue	!
[>2e-X/ 2g	(<8c\L	.	(>4.ee-X\ 4.gg 4.eee-X	.
.	8B\J	.	.	.
.	4c\)	.	.	.
.	.	.	8ccc\	.
!	!LO:S:color=blue	!	!	!
2c/ 2e-]	(>8G\L	.	8gg\L	.
.	8F#X\J	.	8ee-\	.
.	4G\)	.	8gg\	.
.	.	.	8ccc\J)	.
=54	=54	=54	=54	=54
!	!LO:S:color=blue	!	!LO:S:color=blue	!
[>2G/ 2c	(<8E-X\L	.	(>4.cc\ 4.gg 4.ccc	.
.	8D\J	.	.	.
.	4E-\)	.	.	.
.	.	.	8gg\	.
!	!LO:S:color=blue	!	!	!
2E-/ 2G]	(<8C\L	.	8ee-X\L	.
.	8BB\J	.	8cc\	.
.	4C\)	.	8ee-\	.
.	.	.	8gg\J)	.
=55	=55	=55	=55	=55
!	!LO:S:color=blue	!	!	!
2e-X/ 2a-X	(>8c\L	.	(>4.ee-X\ 4.aa-X 4.eee-X	.
.	8B\J	.	.	.
.	4c\)	.	.	.
.	.	.	8ccc\	.
!	!LO:S:color=blue	!	!	!
2c/ 2e-	(>8A-X\L	.	8aa-\L	.
.	8G\J	.	8ee-\	.
.	4A-\)	.	8aa-\	.
.	.	.	8ccc\J)	.
=56	=56	=56	=56	=56
!	!LO:S:color=blue	!	!LO:S:color=blue	!
2A-X/ 2c	(>8E-X\L	.	(>4.cc\ 4.ee-X 4.ccc	.
.	8D\J	.	.	.
.	4E-\)	.	.	.
.	.	.	8aa-X\	.
!	!LO:S:color=blue	!	!	!
2E-/ 2A-	(>8C\L	.	8ee-\L	.
.	8BB\J	.	8cc\	.
.	4C\)	.	8ee-\	.
.	.	.	8aa-\J)	.
*v	*v	*	*	*
!!LO:LB:g=original
=57	=57	=57	=57
(>8.C\L 8.c	.	4f#X\ 4an 4ee-X	.
16BB\Jk 16B	.	.	.
!	!	!LO:TX:b:t=et rite-nu-to:dur=7q:ext=ud:problem=text with extention lines	!
4BB-X\) 4B-X	.	4g-X\ 4b-X 4ee-	.
!	!	!LO:TX:b:t=cres_cen_do:problem=dynamics with extention lines	!LO:HP:t=cres-cen-do:ext=ud
(>8.AA\L 8.A	.	4g-\ 4cc-X 4ee-	<
16AA-X\Jk 16A-X	.	.	.
4GG\) 4G	.	4gn\ 4ccn 4ee-	.
=58	=58	=58	=58
8.FF#X/L 8.F#X	.	(>4a\ 4cc 4ee-X	.
16FFn/Jk 16Fn	.	.	.
8.EE/L 8.E	.	8.a\L 8.cc 8.een	.
16EE-X/Jk 16E-X	.	16a\Jk) 16cc 16ff	.
8DD/L 8D	.	4.a\ 4.cc 4.ff	.
8EEn/ 8En	.	.	.
8DD/ 8D	.	.	.
8FF/J 8F	.	8a\ 8cc 8dd	[[
=59	=59	=59	=59
!!!OMD: Tempo 1o
*	*	*^	*
8qGG/ 8qG	.	.	.	.
!	!	!LO:TX:t=P:stem.color=blue:problem	!	!LO:DY:color=blue
(<2G\ (>2g	.	2cc/ 2ee	16g\LL 16cc 16ee 16gg	ff
.	.	.	16g\	.
.	.	.	16gg\	.
.	.	.	16g\JJ	.
.	.	.	16gg\LL	.
.	.	.	16g\	.
.	.	.	16gg\	.
.	.	.	16g\JJ	.
4..E\) 4..e)	.	4ryy	16cc@ 16gg\LL	.
.	.	.	16g\	.
.	.	.	16cc@ 16gg\	.
.	.	.	16g\JJ	.
.	.	4ryy	8g\L 8cc 8gg	.
.	.	.	8g\J 8dd 8gg	.
16F\ 16f	.	.	.	.
=60	=60	=60	=60	=60
2.F\ 2.f	.	2.dd\	16gg\LL	.
.	.	.	16g\	.
.	.	.	16gg\	.
.	.	.	16g\JJ	.
.	.	.	16gg\LL	.
.	.	.	16g\	.
.	.	.	16gg\	.
.	.	.	16g\JJ	.
.	.	.	16gg\LL	.
.	.	.	16g\	.
.	.	.	16gg\	.
.	.	.	16g\JJ	.
8.D\L 8.d	.	4ryy	8.g\L 8.b 8.gg	.
16E\Jk 16e	.	.	16g\Jk 16cc 16gg	.
*	*	*v	*v	*
!!LO:LB:g=original
=61	=61	=61	=61
(<4E\ (>4e	.	[<4g\ (>4cc [>4gg	.
8.C\L) 8.c)	.	8.g\L] 8.ee) 8.gg]	.
16D\Jk 16d	.	16g\Jk 16ff 16gg	.
(<4D\ (>4d	.	[<4g\ (>4ff [>4gg	.
8.AA\L) 8.A)	.	8.g\L] 8.cc) 8.gg]	.
16BB\Jk 16B	.	16g\Jk 16dd 16gg	.
=62	=62	=62	=62
(<4BB\ (>4B	.	16dd\LL 16gg	.
.	.	16g\	.
.	.	16gg\	.
.	.	16g\JJ	.
4GG\) 4G)	.	16b\LL 16gg	.
.	.	16g\	.
.	.	16gg\	.
.	.	16g\JJ	.
8r	.	16gg\LL	.
.	.	16g\	.
8FF/L 8F	.	16b\ 16dd 16gg	.
.	.	16g\JJ	.
8EE/ 8E	.	16cc\LL 16ee 16gg	.
.	.	16g\	.
8DD/J 8D	.	16b\ 16ff 16gg	.
.	.	16g\JJ	.
=63	=63	=63	=63
*^	*	*	*
4EE/ 4E	8EE\	.	2g\ 2cc 2ee 2gg	.
.	8r	.	.	.
*tuplet	*	*	*	*
!LO:TUP:a:problem=klamra łukowa	!	!	!	!
12E\L	2.ryy	.	.	.
12G\	.	.	.	.
12c\J	.	.	.	.
4..A\ 4..c 4..e	.	.	4..a\ 4..cc 4..ee	.
16DD/ 16D	.	.	16f\ 16a 16dd 16ff	.
*v	*v	*	*	*
=64	=64	=64	=64
8DD/ 8D	.	2.f\ 2.a 2.dd 2.ff	.
8r	.	.	.
!LO:TUP:a:problem=klamra łukowa	!	!	!
12F\L	.	.	.
12A\	.	.	.
12d\J	.	.	.
4f\	.	.	.
8.FF/L 8.F	.	8.d\L 8.a 8.cc 8.dd	.
16EE/Jk 16E	.	16e\Jk 16g#X 16b 16ee	.
!!LO:PB:g=original
=65	=65	=65	=65
*Xtuplet	*	*	*
12EE/L 12E	.	(>4e\ 4g#X 4b 4ee	.
12FF#X/ 12F#X	.	.	.
12GG#X/J 12G#X	.	.	.
8.AA/L 8.A	.	8.e\L) 8.a 8.cc	.
16FFn/Jk 16Fn	.	16d\Jk 16a 16dd	.
4FF/ 4F	.	(>4d\ 4a 4dd	.
8.DD/L 8.D	.	8.c/L 8.f 8.a	.
16GG#/Jk 16G#	.	16d/Jk) 16f 16b	.
=66	=66	=66	=66
4GG/ 4G	.	8d/ 8f 8b	.
.	.	8r	.
!	!	!LO:S:color=blue	!
!	!	!LO:T:color=blue	!
12GG/L 12G	.	(<2c/ [<2e (>2cc	.
12C/	.	.	.
12E/J	.	.	.
4.G\	.	.	.
.	.	4e/] 4g) 4cc#)	.
8GG/	.	.	.
=67	=67	=67	=67
*tremolo	*	*	*
!	!	!LO:S:color=blue	!
(<16GG/LL	.	(>4.f/ 4.a 4.dd	.
16G/	.	.	.
16GG/	.	.	.
16G/	.	.	.
16GG/	.	.	.
16G/	.	.	.
16GG/	.	8e/ 8a 8cc#X	.
16G/JJ)	.	.	.
(<16GG/LL	.	8f/L 8a 8dd	.
16G/	.	.	.
16GG/	.	8A/) 8d 8f	.
16G/	.	.	.
16GG/	.	8d/ 8f 8a	.
16G/	.	.	.
16GG/	.	8f/J 8a 8dd	.
16G/JJ)	.	.	.
*Xtremolo	*	*	*
=68	=68	=68	=68
[<4GG/ [>4G	.	8e/ 8a 8cc#X	.
.	.	8r	.
*tuplet	*	*	*
!LO:TUP:a:problem=klamra łukowa	!	!LO:S:color=blue	!
12GG\L] 12G]	.	(<2f/ (<2a (>2dd	.
12D\	.	.	.
12F\J	.	.	.
4.A\	.	.	.
.	.	4f#X/) 4cc#) 4dd#X)	.
8GG/	.	.	.
!!LO:LB:g=original
=69	=69	=69	=69
*tremolo	*	*	*
16GG/LL	.	(>4.g/ 4.cc 4.ee	.
16G/	.	.	.
16GG/	.	.	.
16G/	.	.	.
16GG/	.	.	.
16G/	.	.	.
16GG/	.	8f#X/ 8cc 8dd#X	.
16G/JJ	.	.	.
16GG/LL	.	8g/L) 8cc 8ee	.
16G/	.	.	.
16GG/	.	8c/ 8e 8g	.
16G/	.	.	.
16GG/	.	8e/ 8g 8cc	.
16G/	.	.	.
16GG/	.	8g/J 8cc 8ee	.
16G/JJ	.	.	.
*Xtremolo	*	*	*
=70	=70	=70	=70
[<4GG\ [>4G	.	8a\ 8cc 8ff	.
.	.	8r	.
!LO:TUP:a:problem=klamra łukowa	!	!	!
12GG\L] 12D 12G]	.	4.f\ 4.a\ 4.dd\	.
12D\	.	.	.
12F\J	.	.	.
4.A\	.	.	.
.	.	8e\L 8a 8cc#X	.
.	.	8f\ 8a 8dd	.
8GG/	.	8a\J 8dd 8ff	.
=71	=71	=71	=71
(>8GG\L	.	(<2dd\ (>2ff (>2aa	.
8GG\	.	.	.
8D\	.	.	.
8F\J	.	.	.
8A\L	.	4a\) 4dd) 4ff)	.
8d\J	.	.	.
8f\)	.	8r	.
8r	.	8a\ 8dd 8ff	.
=72	=72	=72	=72
[<4GG\ [>4G	.	8cc\ 8ff 8aa	.
.	.	8r	.
!LO:TUP:a:problem=klamra łukowa	!	!	!
12GG\L] 12G]	.	4.a\ 4.dd 4.ff	.
12D\	.	.	.
12F\J	.	.	.
4.A\	.	.	.
.	.	8g\L 8dd 8ee	.
.	.	8a\ 8dd 8ff	.
8GG/	.	8dd\J 8ff 8aa	.
!!LO:LB:g=original
=73	=73	=73	=73
!	!	!LO:S:color=blue	!
(>8GG\L	.	(<2ff\ (<2aa (>2ddd	.
8D\	.	.	.
8F\	.	.	.
8A\J	.	.	.
8d\L	.	4dd\) 4ff) 4aa)	.
8f\	.	.	.
8a\J)	.	8r	.
8r	.	8dd\ 8ff 8aa	.
=74	=74	=74	=74
!	!	!LO:S:color=blue	!
(>8GG\L	.	(>2cc\ 2ee-X 2ff#X 2ccc	.
8C\	.	.	.
8E-X\	.	.	.
8F#X\J)	.	.	.
(>8C\L	.	4.b\ 4.ee- 4.ff# 4.bb	.
8E-\	.	.	.
8F#\	.	.	.
8A\J)	.	8a\) 8cc 8ee- 8aa	.
=75	=75	=75	=75
(>8GG\L	.	8a\ 8cc 8een 8aa	.
8C\	.	8r	.
8En\	.	[<4g\ [<4cc [>4ee [>4gg	.
8G\J)	.	.	.
(>8C\L	.	8g\L] 8cc] 8ee] 8gg]	.
!	!	!LO:S:color=blue	!
8E\	.	(>16a\L 16aa	.
.	.	16g\JJ 16gg	.
8G\	.	8f#X\L 8ff#X	.
8c\J)	.	8g\J) 8gg	.
=76	=76	=76	=76
!	!	!LO:S:color=blue	!
(>8GG\L	.	(>4.cc\ 4.ee-X 4.ff#X 4.ccc	.
8C\	.	.	.
8E-X\	.	.	.
8F#X\J)	.	16dd\LL 16ddd	.
.	.	16cc\JJ 16ccc	.
!LO:S:color=blue	!	!	!
(>8C\L	.	8b\L 8ee- 8ff# 8bb	.
8E-\	.	8a\@ 8aa@	.
8F#\	.	8.cc\ 8.ccc	.
8A\J)	.	.	.
.	.	16a\Jk) 16cc 16ee- 16aa	.
!!LO:LB:g=original
=77	=77	=77	=77
(>8GG\L	.	8a\ 8cc 8een 8aa	.
8C\	.	8r	.
8En\	.	[<4g^>\ [<4cc [>4een [>4gg	.
8G\J)	.	.	.
(>8C\L	.	8g\L] 8cc] 8ee] 8gg]	.
8E\	.	8g\ 8cc 8ee 8gg	.
8G\	.	8e\ 8g 8cc 8ee	.
8c\J)	.	8c\J 8e 8g 8cc	.
=78	=78	=78	=78
(<8DD/L 8D	.	4.f\ 4.a 4.dd 4.ff	.
8CC/ 8C	.	.	.
8BBB/ 8BB	.	.	.
8CC/J 8C	.	8f\ 8a-X 8dd 8ff	.
4DD/) 4D	.	4f\ 4g 4b@ 4ff	.
4EE/ 4E	.	4e\ 4g 4cc 4ee	.
=79	=79	=79	=79
!LO:S:color=blue	!	!	!
(<8DD/L 8D	.	4.f\ 4.a 4.dd 4.ff	.
8CC/ 8C	.	.	.
8BBB/ 8BB	.	.	.
8CC/J 8C	.	8f\ 8a-X 8dd 8ff	.
4.DD/) 4.D	.	8f\L 8g 8dd 8ff	.
!	!	!LO:ACC:color=blue	!
.	.	(>8an'>\ 8dd 8ff 8aa	.
.	.	8f'>\ 8g 8dd 8ff	.
8EE/ 8E	.	8e'>\J) 8g 8cc 8ee	.
=80	=80	=80	=80
!LO:S:color=blue	!	!	!
(<8DD/L 8D	.	4.f\ 4.a 4.dd 4.ff	.
8CC/ 8C	.	.	.
8BBB/ 8BB	.	.	.
8CC/J) 8C	.	8f\ 8a-X 8dd 8ff	.
!LO:S:color=blue	!	!LO:S:color=blue	!
(<4DD/ 4D	.	(>4f\ 4g 4dd 4ff	.
8.EE/L 8.E	.	8.e\L 8.g 8.cc 8.ee	.
16FF/Jk) 16F	.	16d\Jk) 16an 16cc 16dd	.
!!LO:LB:g=original
=81	=81	=81	=81
8GG\ 8G	.	(<2f\ [>2g (>2b (>2dd	.
8r	.	.	.
4GGG/ 4GG	.	.	.
8qCC/ 8qC	.	.	.
8.C\L 8.c	.	8e\L) 8g] 8cc))	.
.	.	16g\L	.
16BB\Jk 16B	.	16g\JJ	.
!LO:TUP:a:problem=klamra łukowa	!	!	!
12BB-X\L 12B-X	.	8c/ 8cc	.
12AA\ 12A	.	.	.
.	.	8r	.
12GG\J 12G	.	.	.
=82||	=82||	=82||	=82||
*k[b-]	*	*k[b-]	*
*M2/2	*	*M2/2	*
*met(c|)	*	*met(c|)	*
*Xtuplet	*	*	*
!	!	!LO:TX:a:t=Un poco:color=blue	!LO:DY:rj
!	!	!LO:S:color=blue	!
12FF/ 12F	.	(>2c/ 2f 2a 2cc	p
!LO:TUP:b:problem=klamra łukowa	!	!	!
12C/L	.	.	.
12A/	.	.	.
12F/	.	.	.
12c/	.	.	.
12A/J	.	.	.
12r	.	4.f\ 4.a 4.cc 4.ff	.
!LO:TUP:b:problem=klamra łukowa	!	!	!
12C/L	.	.	.
12A/	.	.	.
12F/	.	.	.
12c/	.	.	.
.	.	8a\) 8cc 8ff 8aa	.
12A/J	.	.	.
=83	=83	=83	=83
*^	*	*^	*
!	!	!	!LO:TX:a:t=piu lento:color=blue	!	!
4r	8FF\ 8F	.	2.a/ 2.bn 2.dd 2.aa	12r	.
!	!	!	!LO:TUP:a:problem=klamra łukowa	!	!
.	.	.	.	12a\L	.
.	2.ryy	.	.	.	.
.	.	.	.	12dd\J	.
4ryy	.	.	.	12b\L	.
.	.	.	.	12a\	.
.	.	.	.	12dd\J	.
!LO:TUP:a:problem=klamra łukowa	!	!	!	!	!
12r	.	.	.	12b\L	.
12D/L	.	.	.	12a\	.
12D/	.	.	.	12dd\J	.
12F/	.	.	4g#X\ 4b 4dd 4gg#X	4ryy	.
12Bn/	.	.	.	.	.
.	8ryy	.	.	.	.
12d/J	.	.	.	.	.
*	*	*	*v	*v	*
=84	=84	=84	=84	=84
!	!	!	!LO:S:color=blue	!
12r	8FF\ 8F	.	(>2gn\ 2b-X 2dd 2ggn	.
!LO:TUP:a:note=na niebiesko:problem=klamra łukowa	!	!	!	!
12BB-\L	.	.	.	.
.	2.ryy	.	.	.
12B-X\	.	.	.	.
12G\	.	.	.	.
12d\	.	.	.	.
12B-\J	.	.	.	.
12r	.	.	4.b-\ 4.dd 4.gg 4.bb-	.
!LO:TUP:a:note=na niebiesko:problem=klamra łukowa	!	!	!	!
12D\L	.	.	.	.
12B-\	.	.	.	.
12G\	.	.	.	.
12d\	.	.	.	.
.	8ryy	.	8dd\) 8gg 8bb- 8ddd	.
12B-\J	.	.	.	.
!!LO:LB:g=original
=85	=85	=85	=85	=85
*	*	*	*^	*
4r	8FF\ 8F	.	2.dd/ 2.gg 2.bb- 2.ddd	12r	.
!	!	!	!LO:TUP:a:problem=klamra łukowa	!	!
.	.	.	.	12dd\L	.
.	2.ryy	.	.	.	.
.	.	.	.	12bb-\J	.
8r	.	.	.	12gg\L	.
.	.	.	.	12b-\	.
8G\	.	.	.	.	.
.	.	.	.	12bb-\J	.
*tuplet	*	*	*	*	*
!LO:TUP:a:problem=klamra łukowa	!	!	!	!	!
12A\L	.	.	.	12gg\L	.
12B-\	.	.	.	12dd\	.
12d\J	.	.	.	12bb-\J	.
8e\L	.	.	4dd-X\ 4gg 4bb- 4ddd-X	4ryy	.
8a\J	8ryy	.	.	.	.
*	*	*	*v	*v	*
=86	=86	=86	=86	=86
*Xtuplet	*	*	*	*
!	!	!	!LO:S:color=blue	!
12r	8EE\ 8E	.	(>2ccn/ 2gg 2bb- 2cccn	.
12E\L	.	.	.	.
.	2.ryy	.	.	.
12c\	.	.	.	.
12B-\	.	.	.	.
12g\	.	.	.	.
12c\J	.	.	.	.
12B-\L	.	.	4.dd/ 4.gg 4.bb- 4.ddd	.
12E\	.	.	.	.
12c\	.	.	.	.
12B-\	.	.	.	.
12g\	.	.	.	.
.	8ryy	.	8dd/) 8gg 8bb- 8ccc	.
12c\J	.	.	.	.
=87	=87	=87	=87	=87
!	!	!	!LO:S:color=blue	!
12r	8FF\ 8F	.	(>2ff\ 2aa 2fff	.
12F/L	.	.	.	.
.	4.ryy	.	.	.
12c/	.	.	.	.
12A/	.	.	.	.
12f/	.	.	.	.
12c/J	.	.	.	.
12r	8EE\ 8E	.	4.cc\ 4.gg 4.ccc	.
12E/L	.	.	.	.
.	4.ryy	.	.	.
12c/	.	.	.	.
12B-/	.	.	.	.
12g/	.	.	.	.
.	.	.	8b-\) 8cc 8gg 8bb-	.
12c/J	.	.	.	.
=88	=88	=88	=88	=88
!	!	!	!LO:S:color=blue	!
12r	8FF\ 8F	.	(>2a\ 2cc 2ff 2aa	.
12F/L	.	.	.	.
.	4.ryy	.	.	.
12c/	.	.	.	.
12A/	.	.	.	.
12f/	.	.	.	.
12c/J	.	.	.	.
12r	8GG\ 8G	.	4.cc\ 4.dd 4.ccc	.
12D/L	.	.	.	.
.	4.ryy	.	.	.
12B-/	.	.	.	.
12G/	.	.	.	.
12d/	.	.	.	.
.	.	.	8b-\) 8dd 8gg 8bb-	.
12B-/J	.	.	.	.
*v	*v	*	*	*
!!LO:PB:g=original
=89	=89	=89	=89
!	!	!LO:T:color=blue	!
!LO:TUP:a:note=na niebiesko:problem=klamra łukowa	!	!LO:S:color=blue	!
12C\L	.	(<2a\ [<2cc (<2ff (>2aa	.
12C\	.	.	.
12F\J	.	.	.
12A\L	.	.	.
12c\	.	.	.
12f\J	.	.	.
12C/L 12c	.	4g\) 4cc] 4ee) 4gg)	.
12CC'</ 12C	.	.	.
!	!	!	!LO:HP:color=blue
12CC#X'</J 12C#X	.	.	<
12DD'</L 12D	.	8r	.
12DD#X'</ 12D#X	.	.	.
.	.	8c/ 8g 8b- 8cc	[[
12EE'</J 12E	.	.	.
=90	=90	=90	=90
!	!	!LO:S:color=blue	!
12FF\ 12F	.	(>2c/ 2f 2a 2cc	.
!LO:TUP:a:problem=klamra łukowa	!	!	!
12C\L	.	.	.
12A\	.	.	.
12F\	.	.	.
12c\	.	.	.
12A\J	.	.	.
12ryy	.	4.f\ 4.a 4.cc 4.ff	.
!LO:TUP:a:problem=klamra łukowa	!	!	!
12C\L	.	.	.
12A\	.	.	.
12F\	.	.	.
12c\	.	.	.
.	.	8a\) 8cc 8ff 8aa	.
12A\J	.	.	.
=91	=91	=91	=91
*	*	*^	*
*	*	*Xtuplet	*	*
8FF\ 8F	.	2.a/ 2.bn 2.dd 2.aa	12r	.
!	!	!LO:TUP:a:problem=klamra łukowa	!	!
!	!	!LO:TUP:b:note=na niebiesko:problem=klamra łukowa	!	!
.	.	.	12a\L	.
4.ryy	.	.	.	.
.	.	.	12dd\J	.
.	.	.	12b\L	.
.	.	.	12a\	.
.	.	.	12dd\J	.
12ryy	.	.	12b\L	.
!LO:TUP:b:problem=klamra łukowa	!	!	!	!
12D/	.	.	12a\	.
12E/L	.	.	12dd\J	.
12F/	.	4g#X\ 4bn 4dd 4gg#X	4ryy	.
12Bn/	.	.	.	.
12d/J	.	.	.	.
=92	=92	=92	=92	=92
*^	*	*	*	*
!	!	!	!	!LO:S:color=blue	!
4d/	12FF\ 12F	.	2b-X/ 2dd	(>4.gn\ 4.ggn	.
!LO:TUP:a:note=na niebiesko:problem=klamra łukowa	!	!	!	!	!
.	12D\L	.	.	.	.
.	12B-\	.	.	.	.
4r	12G\	.	.	.	.
.	12d\	.	.	.	.
.	.	.	.	8f#X\ 8ff#X	.
.	12B-\J	.	.	.	.
2rc	12r@	.	2ryy	8g\L 8b- 8dd 8gg	.
!LO:TUP:a:note=na niebiesko:problem=klamra łukowa	!	!	!	!	!
.	12D\L	.	.	.	.
.	.	.	.	8a\ 8aa	.
.	12B-\	.	.	.	.
.	12G\	.	.	8.b-\ 8.bb-	.
.	12d\	.	.	.	.
.	12B-\J	.	.	.	.
.	.	.	.	16dd\Jk) 16ddd	.
*v	*v	*	*	*	*
!!LO:LB:g=original
=93	=93	=93	=93	=93
(>4.EE/ 4.E	.	2.dd/ 2.gg 2.bb- 2.ddd	12r	.
.	.	.	12dd\L	.
.	.	.	12bb-\J	.
.	.	.	12gg\L	.
.	.	.	12dd\	.
8FF/ 8F	.	.	.	.
.	.	.	12bb-\J	.
8EE/L 8E	.	.	12gg\L	.
.	.	.	12dd\	.
8DD/ 8D	.	.	.	.
.	.	.	12bb-\J	.
8.EE/ 8.E	.	4cc#X\ 4gg 4aa 4ccc#X	4ryy	.
16AA/Jk) 16A	.	.	.	.
*	*	*v	*v	*
=94	=94	=94	=94
8AA/L 8A	.	[<2cc#X\ [>2aa [>2ccc#X	.
8GG#X/ 8G#X	.	.	.
8GGn/ 8Gn	.	.	.
8FF#X/J 8F#X	.	.	.
8FFn/L 8Fn	.	8cc#\L] 8aa] 8ccc#]	.
!	!	!LO:S:color=blue	!
8EE/ 8E	.	(>8cc#\ 8aa 8ccc#	.
8FF/ 8F	.	8dd\ 8aa 8ddd	.
8CC#X/J 8C#X	.	8ee\J) 8aa 8eee	.
=95	=95	=95	=95
8DD/L 8D	.	[<2ff\ [<2aa [>2fff	.
8CC#X/ 8C#X	.	.	.
8DD/ 8D	.	.	.
8FF/J 8F	.	.	.
4.GG\ 4.G	.	8ff\L] 8aa] 8fff]	.
!	!	!LO:S:color=blue	!
.	.	(>8dd\ 8bb- 8ddd	.
.	.	8b-\ 8dd 8bb-	.
8BB-\ 8B-	.	8g\J) 8dd 8gg	.
=96	=96	=96	=96
!	!	!LO:S:color=blue	!
!	!	!LO:T:color=blue	!
8AA\L 8A	.	[<2.a\ (<2.dd 2.ff (>2.aa	.
8D\ 8d	.	.	.
8E\ 8e	.	.	.
8F\J 8f	.	.	.
4A\ 4a	.	.	.
8.A\L 8.c#X 8.e	.	8.a\L] 8.cc#X) 8.ee)	.
16AA\Jk 16A	.	16a\Jk 16cc# 16ee	.
!!LO:LB:g=original
=97	=97	=97	=97
12DD\L 12D	.	[<2f\ [<2a [>2dd [>2ff	.
12GG\ 12G	.	.	.
12FF\J 12F	.	.	.
12BB-\L 12B-	.	.	.
12AA\ 12A	.	.	.
12F\J 12f	.	.	.
8E\L 8e	.	8f\L] 8a] 8dd] 8ff]	.
8D\J 8d	.	8d\ 8f 8a 8dd	.
8r	.	8A\ 8d 8f 8a	.
8DD/ 8D	.	8F\J 8A 8d 8f	.
=98	=98	=98	=98
!	!	!LO:S:color=blue	!
4AA/ 4A	.	(>2A/ 2c#X 2e	.
(<16qqAAA/LL	.	.	.
16qqAA/JJ	.	.	.
4AAA/)	.	.	.
8DD/L 8D	.	4.A/ 4.d 4.f	.
8CC#X/ 8C#X	.	.	.
8DD/ 8D	.	.	.
8FF/J 8F	.	8A/ 8d	.
=99	=99	=99	=99
*	*	*^	*
*	*	*	*^	*
8AA/L 8A	.	4A/) 4c#X 4e	2.ryy	2.ryy	.
8GG/ 8G	.	.	.	.	.
8FF/ 8F	.	4A/ 4c# 4a	.	.	.
8EE/J 8E	.	.	.	.	.
8FF/L 8F	.	4d/ 4a 4dd	.	.	.
8EE/ 8E	.	.	.	.	.
8FF/ 8F	.	4a/	8d\L	4A\	.
8DD/J 8D	.	.	8f\J	.	.
*	*	*	*v	*v	*
=100	=100	=100	=100	=100
!	!	!LO:S:color=blue	!	!
4.AA/ 4.A	.	(>4e/	2A\ 2c#X	.
.	.	16f/LL	.	.
.	.	16e/	.	.
8AAA/ 8AA	.	16d#X/	.	.
.	.	16e/JJ	.	.
(<8DD/L 8D	.	4.A/ 4.d# 4.f	2ryy	.
8CC#X/ 8C#X	.	.	.	.
8DD/ 8D	.	.	.	.
8FF/J) 8F	.	8A/) 8d#	.	.
*	*	*v	*v	*
!!LO:LB:g=original
=101	=101	=101	=101
(>8AA\L 8A	.	4.A/ 4.c#X 4.e	.
8GG#X\J) 8G#X	.	.	.
[<4GGn\ [>4Gn	.	.	.
.	.	16A/LL	.
.	.	16A/JJ	.
8.GG\L] 8.G]	.	[<4A/	.
16FF#X\Jk 16F#X	.	.	.
*tuplet	*	*	*
!LO:TUP:a:problem=klamra łukowa	!	!	!
12GG\L 12G	.	12A/L]	.
12FF#\ 12F#	.	12A/	.
12FFn\J 12Fn	.	12A/J 12cn 12a	.
=102	=102	=102	=102
4C/	.	(>2G/ 2c 2e 2g	.
(<16qqCC/LL	.	.	.
16qqC/JJ	.	.	.
4CC/)	.	.	.
8FF/L 8F	.	4.A/ 4.c 4.a	.
8EE/ 8E	.	.	.
8FF/ 8F	.	.	.
8AA/J 8A	.	8A/) 8c 8f	.
=103	=103	=103	=103
*	*	*^	*
*	*	*	*^	*
8C\L 8c	.	4c/ 4e 4g	2.ryy	2.ryy	.
8BB-\ 8B-	.	.	.	.	.
8AA\ 8A	.	4c/ 4e 4cc	.	.	.
8GG\J 8G	.	.	.	.	.
8AA\L 8A	.	4f/ 4cc 4ff	.	.	.
8GG\ 8G	.	.	.	.	.
8AA\ 8A	.	4cc/	8f\L	4c\	.
8FF\J 8F	.	.	8a\J	.	.
*	*	*	*v	*v	*
=104	=104	=104	=104	=104
*^	*	*	*	*
!	!	!	!LO:S:color=blue	!	!
4.C\ 4.c	8CL\@	.	(>4g/	[<4c\ [>4e	.
.	8C\@	.	.	.	.
.	8E\@	.	16a/LL	4c\] 4e]	.
.	.	.	16g/	.	.
8CC/ 8C	8CCJ\@	.	16f#X/	.	.
.	.	.	16g/JJ	.	.
!	!	!	!LO:SIC:v:s=4.fn	!	!
8FF/L 8F	2ryy	.	4.c/ 4.f# 4.a	2ryy	.
8EE/ 8E	.	.	.	.	.
8FF/ 8F	.	.	.	.	.
8AA/J 8A	.	.	8c/) 8f#	.	.
*v	*v	*	*	*	*
*	*	*v	*v	*
!!LO:LB:g=original
=105	=105	=105	=105
8C\L 8c	.	4.c/ 4.e 4.g	.
8BBn\J 8Bn	.	.	.
[4BB-X\ [4B-X	.	.	.
.	.	16c/LL	.
.	.	16c/JJ	.
8.BB-\L] 8.B-]	.	[<4c/	.
16AA\Jk 16A	.	.	.
*	*	*tuplet	*
!LO:TUP:a:problem=klamra łukowa	!	!LO:TUP:a:problem=klamra łukowa	!
12BB-\L 12B-	.	12c/L]	.
12AA\ 12A	.	12c/	.
12GG\J 12G	.	12c/J 12e 12b- 12cc	.
=106	=106	=106	=106
*^	*	*	*
*Xtuplet	*	*	*	*
!	!	!	!LO:S:color=blue	!
12r	8FF\ 8F	.	(>2c/ 2f 2a 2cc	.
!LO:TUP:b:note=na niebiesko:problem=klamra łukowa	!	!	!	!
12C/L	.	.	.	.
.	2.ryy	.	.	.
12A/	.	.	.	.
12F/	.	.	.	.
12c/	.	.	.	.
12A/J	.	.	.	.
!LO:TUP:b:note=na niebiesko:problem=klamra łukowa	!	!	!	!
12F/L	.	.	4.f\ 4.a 4.cc 4.ff	.
12C/	.	.	.	.
12A/	.	.	.	.
12F/	.	.	.	.
12c/	.	.	.	.
.	8ryy	.	8a\) 8cc 8ff 8aa	.
12A/J	.	.	.	.
=107	=107	=107	=107	=107
*	*	*	*^	*
!	!	!	!	!LO:TUP:a:problem=klamra łukowa	!
4r	8FF\ 8F	.	2.a/ 2.bn 2.dd 2.aa	12r	.
!	!	!	!	!LO:S:color=blue	!
.	.	.	.	(<12a\L	.
.	2.ryy	.	.	.	.
.	.	.	.	12dd\J	.
!	!	!	!	!LO:TUP:a	!
8r	.	.	.	12b\L	.
.	.	.	.	12a\	.
(<8D/	.	.	.	.	.
.	.	.	.	12dd\J	.
!	!	!	!	!LO:TUP:a	!
8E/L	.	.	.	12b\L	.
.	.	.	.	12a\	.
8F/	.	.	.	.	.
.	.	.	.	12dd\J)	.
8Bn/	.	.	4g#X\ 4b 4dd 4gg#X	4ryy	.
8d/J)	8ryy	.	.	.	.
*	*	*	*v	*v	*
=108	=108	=108	=108	=108
!	!	!	!LO:S:color=blue	!
12d/	8FF\ 8F	.	(>2gn\ 2b-X 2dd 2ggn	.
!LO:TUP:a:note=na niebiesko:problem=klamra łukowa	!	!	!	!
12D\L	.	.	.	.
.	2.ryy	.	.	.
12B-\	.	.	.	.
12G\	.	.	.	.
12d\	.	.	.	.
12B-\J	.	.	.	.
!LO:TUP:a:note=na niebiesko:problem=klamra łukowa	!	!	!	!
12G\L	.	.	4.b-\ 4.dd 4.gg 4.bb-	.
12D\	.	.	.	.
12B-\	.	.	.	.
12G\	.	.	.	.
12d\	.	.	.	.
.	8ryy	.	8dd\) 8gg 8bb- 8ddd	.
12B-\J	.	.	.	.
!!LO:LB:g=original
=109	=109	=109	=109	=109
*	*	*	*^	*
!	!	!	!	!LO:TUP:a:problem=klamra łukowa	!
8e/L	8FF\ 8F	.	2.dd/ 2.gg 2.bb- 2.ddd	12r	.
.	.	.	.	12dd\L	.
8d/J	2.ryy	.	.	.	.
.	.	.	.	12bb-\J	.
!	!	!	!	!LO:TUP:a	!
8r	.	.	.	12gg\L	.
.	.	.	.	12dd\	.
(<8G/	.	.	.	.	.
.	.	.	.	12bb-\J	.
*tuplet	*	*	*	*	*
!LO:TUP:b	!	!	!	!LO:TUP:a	!
12A/L	.	.	.	12gg\L	.
12B-/	.	.	.	12b-\	.
12d/J	.	.	.	12bb-\J	.
8e/L	.	.	4dd-X\ 4gg 4bb- 4ddd-X	4ryy	.
8g/J)	8ryy	.	.	.	.
*	*	*	*v	*v	*
=110	=110	=110	=110	=110
*Xtuplet	*	*	*	*
!	!	!	!LO:S:color=blue	!
12g/	8EE\ 8E	.	(>2cc/ 2gg 2bb- 2ccc	.
12E/L	.	.	.	.
.	2.ryy	.	.	.
12c/	.	.	.	.
12A/	.	.	.	.
12e/	.	.	.	.
12c/J	.	.	.	.
12B-/L	.	.	4.dd/ 4.ff 4.bb- 4.ddd	.
12E/	.	.	.	.
12c/	.	.	.	.
12B-/	.	.	.	.
12e/	.	.	.	.
.	8ryy	.	8cc/) 8gg 8bb- 8ccc	.
12c/J	.	.	.	.
=111	=111	=111	=111	=111
!	!	!	!LO:S:color=blue	!
12r	8FF\ 8F	.	(>2ff/ 2aa 2ccc 2fff	.
12F/L	.	.	.	.
.	4.ryy	.	.	.
12c/	.	.	.	.
12A/	.	.	.	.
12f/	.	.	.	.
12c/J	.	.	.	.
12r	8EE\ 8E	.	4.cc/ 4.gg 4.ccc	.
12E/L	.	.	.	.
.	4.ryy	.	.	.
12c/	.	.	.	.
12B-/	.	.	.	.
12e/	.	.	.	.
.	.	.	8b-/) 8cc 8bb-	.
12c/J	.	.	.	.
=112	=112	=112	=112	=112
*	*	*	*^	*
!	!	!	!LO:S:color=blue	!	!
12r	8FF\ 8F	.	(>2a/ 2cc 2ff 2aa	2ryy	.
12F/L	.	.	.	.	.
.	4.ryy	.	.	.	.
12c/	.	.	.	.	.
12A/	.	.	.	.	.
12f/	.	.	.	.	.
12c/J	.	.	.	.	.
12r	8GG\ 8G	.	4.cc/ 4.dd 4.gg 4.ccc	8c\L	.
12D/L	.	.	.	.	.
.	4.ryy	.	.	8B-\	.
12B-/	.	.	.	.	.
12G/	.	.	.	8A\	.
12d/	.	.	.	.	.
.	.	.	8b-/) 8dd 8gg 8bb-	8B-\J	.
12B-/J	.	.	.	.	.
*	*	*	*v	*v	*
!!LO:PB:g=original
=113	=113	=113	=113	=113
!	!	!	!LO:S:color=blue	!
!LO:TUP:b:problem=klamra łukowa	!	!	!LO:T:color=blue	!
12r	[<2C\	.	(<2a/ [<2cc (<2ff (>2aa	.
12C/L	.	.	.	.
12F/J	.	.	.	.
12A/L	.	.	.	.
12c/	.	.	.	.
12f/J	.	.	.	.
12C/L] 12c	2ryy	.	4g/) 4cc] 4ee) 4gg)	.
12CC/ 12C	.	.	.	.
12CC#X/J 12C#X	.	.	.	.
12DD/L 12D	.	.	8r	.
12DD#X/ 12D#X	.	.	.	.
.	.	.	8c/ 8g 8b- 8cc	.
12EE/J 12E	.	.	.	.
*v	*v	*	*	*
=114	=114	=114	=114
12FF/ 12F	.	(>2c/ 2f 2a 2cc	.
12C/L	.	.	.
12A/	.	.	.
12F/	.	.	.
12c/	.	.	.
12A/J	.	.	.
12F/L	.	4.f/ 4.a 4.cc 4.ff	.
12C/	.	.	.
12A/	.	.	.
12F/	.	.	.
12c/	.	.	.
.	.	8a/ 8cc 8ff 8aa)	.
12A/J	.	.	.
=115	=115	=115	=115
*^	*	*^	*
*	*	*	*	*Xtuplet	*
!	!	!	!LO:TUP:b:problem=klamra łukowa	!	!
4r	4FF\ 4F	.	(>2.a/ 2.bn 2.dd 2.aa	12r	.
.	.	.	.	12a\L	.
.	.	.	.	12dd\J	.
8r	2.ryy	.	.	12b\L	.
.	.	.	.	12a\	.
(>8D\	.	.	.	.	.
.	.	.	.	12dd\J	.
8E\L	.	.	.	12b\L	.
.	.	.	.	12a\	.
8F\	.	.	.	.	.
.	.	.	.	12dd\J	.
8Bn\	.	.	4g#X\) 4b 4dd 4gg#X	4ryy	.
8d\J)	.	.	.	.	.
=116	=116	=116	=116	=116	=116
8d/	12FF\ 12F	.	(>4.gn\ 4.dd 4.ggn	2b-X\	.
.	12D\L	.	.	.	.
4.ryy	.	.	.	.	.
.	12B-X\	.	.	.	.
.	12G\	.	.	.	.
.	12d\	.	.	.	.
.	.	.	8f#X\ 8ff#X\	.	.
.	12B-\J	.	.	.	.
2ryy	12G\L	.	8g\L 8b- 8dd 8gg	2ryy	.
.	12D\	.	.	.	.
.	.	.	8a\ 8b- 8dd 8aa	.	.
.	12B-\	.	.	.	.
.	12G\	.	8.b-\ 8.dd 8.bb-	.	.
.	12d\	.	.	.	.
.	12B-\J	.	.	.	.
.	.	.	16dd\Jk) 16gg 16ddd	.	.
*v	*v	*	*	*	*
!!LO:LB:g=original
=117	=117	=117	=117	=117
4.EE/ 4.E	.	2.b-/ 2.gg 2.bb- 2.ddd	12r	.
.	.	.	12dd\L	.
.	.	.	12bb-\J	.
.	.	.	12gg\L	.
.	.	.	12dd\	.
8FF/ 8F	.	.	.	.
.	.	.	12bb-\J	.
8EE/L 8E	.	.	12gg\L	.
.	.	.	12dd\	.
8DD/ 8D	.	.	.	.
.	.	.	12bb-\J	.
8.EE/ 8.E	.	8cc#X\L 8gg 8aa 8ccc#X	4ryy	.
.	.	8c#X\J 8e 8cc#	.	.
16AA/Jk 16A	.	.	.	.
*	*	*v	*v	*
=118	=118	=118	=118
!	!	!	!LO:DY:color=blue
12AA-X\L	.	(>4d-X/ 4f 4dd-X	p
12d-X\	.	.	.
12A-X\J	.	.	.
*	*	*tuplet	*
!	!	!LO:TUP:a:problem=klamra łukowa	!LO:HP:color=blue
12F\L	.	12d-/L 12f 12dd-	<
12d-\	.	12e-X/ 12g-X 12ee-X	.
12A-\J	.	12f/J 12a 12ff	.
12AAny\L 12G-X	.	4.g-X\ 4.a 4.gg-X	.
12c\	.	.	.
12Any\	.	.	.
12E\	.	.	.
12c\	.	.	.
.	.	8c/) 8e- 8cc	[
12G-\J	.	.	.
=119	=119	=119	=119
12GG\L	.	(>4c/ 4en 4cc	.
12c\	.	.	.
12G\	.	.	.
*	*	*Xtuplet	*
12E\	.	12c/L 12e 12cc	.
12c\	.	12dn/ 12f 12ddn	.
12G\J	.	12e/J 12een	.
12GG\L	.	4.f/ 4.g 4.ff	.
12Bn\	.	.	.
12G\J	.	.	.
12F\L	.	.	.
12B\	.	.	.
.	.	8B-/) 8d 8b-	.
12G\J	.	.	.
=120	=120	=120	=120
*	*	*^	*
12FF#X\L	.	(>4B-/ 4d#X	2ryy	.
12B#X\	.	.	.	.
12F#X\J	.	.	.	.
*	*	*tremolo	*	*
!	!	!LO:TUP:a:problem=klamra łukowa	!	!
12D#X\L	.	12B-/L 12d# 12b-	.	.
12B#\	.	12c#X/ 12e 12cc#X	.	.
12F#X\J	.	12d#X/J 12f 12dd#X	.	.
12FFn\L	.	8e-X/L 8ee-X	2a/ 2cc#	.
12Fn\	.	.	.	.
.	.	8en/ 8een	.	.
12c\	.	.	.	.
12A\	.	8.f/ 8.ff	.	.
12F\	.	.	.	.
12c\J	.	.	.	.
.	.	16e-X/Jk) 16ee-X	.	.
!!LO:LB:g=original
=121	=121	=121	=121	=121
12FF\L	.	(>4d\ 4dd	2a\	.
12F\	.	.	.	.
12d\J	.	.	.	.
12A\L	.	8e\L 8ee	.	.
12F\	.	.	.	.
.	.	8f\J 8ff	.	.
12d\J	.	.	.	.
12EE\L	.	8g\L 8b- 8dd 8gg	2ryy	.
12E\	.	.	.	.
.	.	8g#X\ 8gg#X	.	.
12B-\J 12d	.	.	.	.
12AA\L	.	8.a\ 8.aa	.	.
12E\	.	.	.	.
12A\J 12c#X	.	.	.	.
.	.	16gn\Jk) 16ggn	.	.
*	*	*v	*v	*
=122	=122	=122	=122
*^	*	*	*
12r	4D\	.	4f\ 4a (>4ff	.
12F/L	.	.	.	.
12d/J	.	.	.	.
*	*	*	*tuplet	*
!	!	!	!LO:TUP:a:problem=klamra łukowa	!
12A/L	4C\	.	12f\L 12ff	.
12F/	.	.	12g\ 12gg	.
12d/J	.	.	12a\J 12aa	.
12r	4BB-\	.	8b-X\L 8dd 8bb-X	.
12F/L	.	.	.	.
.	.	.	8cc\ 8ccc	.
12d/	.	.	.	.
12B-/	4AA\	.	8.dd\ 8.ff 8.ddd	.
12F/	.	.	.	.
12d/J	.	.	.	.
.	.	.	16dd\Jk 16ddd)	.
=123	=123	=123	=123	=123
!LO:N:vis=2	!	!	!	!
8G\L 8B- 8d	2G\ 2B- 2d	.	[<2dd\ [<2gg [>2bb- [>2ddd	.
8FF\ 8F	.	.	.	.
8EE\ 8E	.	.	.	.
8DD\J 8D	.	.	.	.
*	*	*	*Xtremolo	*
4.EE\ 4.E	2ryy	.	8dd\L] 8gg] 8bb-] 8ddd]	.
!	!	!	!LO:S:color=blue	!
.	.	.	(>8dd\ 8gg 8bb- 8ddd	.
.	.	.	8ee\ 8gg 8bb- 8eee	.
8G\	.	.	8dd\J) 8gg 8bb- 8ddd	.
*v	*v	*	*	*
=124	=124	=124	=124
8AA/L 8A	.	[>2cc#X\ [>2aa (>[>2ccc#X	.
8GG#X/ 8G#X	.	.	.
8GGn/ 8Gn	.	.	.
8FF#X/J 8F#X	.	.	.
8.FFn/L 8.Fn	.	8.cc#\L] 8.aa] 8.ccc#]	.
16EE/Jk 16E	.	16cc#\Jk 16aa 16ccc#	.
*tuplet	*	*	*
!LO:TUP:b:problem=klamra łukowa	!	!LO:TUP:a:problem=klamra łukowa	!
12EE/L 12E	.	12cc#\L 12aa 12ccc#	.
12FF/ 12F	.	12dd\ 12aa 12ddd	.
12CC#X/J 12C#X	.	12ee\J 12aa 12eee	.
!!LO:LB:g=original
=125	=125	=125	=125
!LO:S:color=blue	!	!	!
(<8DD/L 8D	.	[<2ff\ (>2aa [>2fff	.
8CC#X/ 8C#X	.	.	.
8DD/ 8D	.	.	.
8FF/J 8F	.	.	.
4.GG\ 4.G	.	8ff\L] 8bb-) 8fff]	.
.	.	8dd\ 8ff 8ddd	.
.	.	8b-\ 8dd 8bb-	.
8BB-\) 8B-	.	8g\J) 8dd 8gg	.
=126	=126	=126	=126
*Xtuplet	*	*	*
!LO:TUP:a:note=na niebiesko:problem=klamra łukowa	!	!LO:S:color=blue	!
12C\L	.	(>2cc\ 2ff 2aa 2ccc	.
12F\	.	.	.
12c\	.	.	.
12A\	.	.	.
12F\	.	.	.
12c\J	.	.	.
!LO:TUP:a:note=na niebiesko:problem=klamra łukowa	!	!	!
12C\L	.	4.dd\ 4.ff#X 4.aa 4.ddd	.
12F#X\	.	.	.
12d\	.	.	.
12A\	.	.	.
12F#\	.	.	.
.	.	8a\) 8dd 8ff# 8aa	.
12d\J	.	.	.
=127	=127	=127	=127
!LO:TUP:a:note=na niebiesko:problem=klamra łukowa	!	!LO:S:color=blue	!
12C\L	.	(4a\ 4dd 4ff#X 4aa	.
12G\	.	.	.
12d\	.	.	.
12B-\	.	4b-\) 4dd 4gg 4bb-	.
12G\	.	.	.
12d\J	.	.	.
*rep	*	*	*
!LO:TUP:a:note=na niebiesko:problem=klamra łukowa	!	!	!
12C\L	.	8r	.
12G\	.	.	.
.	.	8g'>\L 8gg	.
12d\	.	.	.
12B-\	.	8a'>\ 8aa	.
12G\	.	.	.
.	.	8b-'>\J 8bb-	.
12d\J	.	.	.
*Xrep	*	*	*
=128	=128	=128	=128
!LO:TUP:a:note=na niebiesko:problem=klamra łukowa	!	!LO:S:color=blue	!
12C\L	.	(>2dd\ 2gg 2bb- 2ddd	.
12G\@	.	.	.
12d\	.	.	.
12B-\	.	.	.
12G\@	.	.	.
12d\J	.	.	.
!LO:TUP:a:note=na niebiesko:problem=klamra łukowa	!	!	!
12C\L	.	4.ee\ 4.gg#X\ 4.bb-\ 4.eeen\	.
12G#X\	.	.	.
12e\	.	.	.
!LO:ACC:color=blue	!	!	!
12Bn\	.	.	.
12Gn\	.	.	.
.	.	8b-\) 8ee\ 8gg#\ 8bb-\	.
12e\J	.	.	.
!!LO:LB:g=original
=129	=129	=129	=129
!	!	!LO:T:color=blue	!
!LO:TUP:a:note=na niebiesko:problem=klamra łukowa	!	!LO:S:color=blue	!
12C\L	.	(<4bn\ [<4ee (<4gg#X (>4bbn	.
12A\	.	.	.
12c\	.	.	.
12e\	.	4cc\) 4ee]\ 4aa)\ 4ccc)\	.
12c\	.	.	.
12A\J	.	.	.
*rep	*	*	*
12C\L	.	8r	.
12A\	.	.	.
.	.	8a\L 8aa	.
12c\	.	.	.
12e\	.	8b\ 8bb	.
12c\	.	.	.
.	.	8cc\J 8ccc	.
12A\J	.	.	.
*Xrep	*	*	*
=130	=130	=130	=130
!LO:TUP:a:note=na niebiesko:problem=klamra łukowa	!	!LO:S:color=blue	!
12C\L	.	(>2ee\ 2aa\ 2ccc\ 2eee\	.
12A\	.	.	.
12e\	.	.	.
12c\	.	.	.
12A\	.	.	.
12e\J	.	.	.
!LO:TUP:a:note=na niebiesko:problem=klamra łukowa	!	!	!
12C\L	.	4.ff\ 4.aa\ 4.ccc\ 4.fff\	.
12A\	.	.	.
12f\	.	.	.
12c\	.	.	.
12A\	.	.	.
.	.	8cc\) 8ff\ 8aa\ 8ccc\	.
12f\J	.	.	.
=131	=131	=131	=131
!LO:TUP:a:note=na niebiesko:problem=klamra łukowa	!	!	!
12C\L	.	8cc#X\L 8gg\ 8aa\ 8ccc#X\	.
12B-\	.	.	.
.	.	8dd\J 8gg 8bb- 8ddd	.
12g\	.	.	.
12d\	.	[<4gg\ [<4bb-\ [>4ddd\ [>4ggg\	.
12B-\	.	.	.
12g\J	.	.	.
*rep	*	*	*
12C\L	.	8gg\L] 8bb-] 8ddd] 8ggg]	.
12B-\	.	.	.
!	!	!LO:S:color=blue	!
.	.	(>8aa\ 8bb-\ 8ddd\ 8aaa\	.
12g\	.	.	.
12d\	.	8gg\ 8ggg\	.
12B-\	.	.	.
.	.	8ff#X\J) 8fff#X\	.
12g\J	.	.	.
*Xrep	*	*	*
=132	=132	=132	=132
!LO:TUP:a:note=na niebiesko:problem=klamra łukowa	!	!LO:S:color=blue	!
12C\L	.	(>8ffn\L 8bb- 8ccc 8fffn	.
12B-\	.	.	.
.	.	8ee\J 8eee	.
12g\	.	.	.
12c\	.	2bb-\ 2ccc 2bbb-	.
12B-\	.	.	.
12g\J	.	.	.
4C\ 4c	.	.	.
8.C\L 8.c	.	8.ee\L 8.bb- 8.ccc 8.eee	.
16FF\Jk 16F	.	16ff\Jk) 16aa 16ccc 16fff	.
!!LO:LB:g=original
=133	=133	=133	=133
*^	*	*	*
!!!OMD: Tempo 1o
!LO:TX:t=P:problem=po lewej stronie systemu dopisane na niebiesko nuty	!	!LO:HP:color=blue	!	!
12r	1DD 1D	<	4.f\ 4.g 4.bn 4.ff	.
!LO:TUP:a:note=na niebiesko:problem=klamra łukowa	!	!	!	!
12G\L	.	.	.	.
12d\	.	.	.	.
12Bn\	.	.	.	.
12f\	.	.	.	.
.	.	.	16f\LL 16g 16b 16ff	.
12d\J	.	.	.	.
.	.	.	16f\JJ 16g 16b 16ff	.
8g\@	.	.	4f/ 4g 4b 4ff	.
8r	.	.	.	.
!	!	!	!LO:TUP:b:note=na niebiesko:problem=klamra łukowa	!
4r	.	.	12f/L 12g 12b 12ff	.
.	.	.	12f/ 12g 12b 12ff	.
.	.	[[	12f/J 12g 12b 12ff	.
*v	*v	*	*	*
=134||	=134||	=134||	=134||
*k[]	*	*k[]	*
*tremolo	*	*	*
!	!	!	!LO:DY:color=blue
16CC/LL	.	4f/ 4a 4cc 4ff	sf
16C/	.	.	.
16CC/	.	.	.
16C/	.	.	.
16CC/	.	8r	.
16C/	.	.	.
16CC/	.	16c/LL	.
16C/JJ	.	16c/JJ	.
!	!	!	!LO:DY:color=blue:rj
16CC/LL	.	8c/	p
16C/	.	.	.
16CC/	.	8r	.
16C/	.	.	.
!	!	!LO:TUP:a	!
16CC/	.	12B/L 12c	.
16C/	.	.	.
.	.	12B/ 12c	.
16CC/	.	.	.
.	.	12B/J 12c	.
16C/JJ	.	.	.
*Xtremolo	*	*	*
=135	=135	=135	=135
*^	*	*	*
!LO:TUP:a:note=na niebiesko:problem=klamra łukowa	!	!	!	!LO:HP:color=blue
8C/	12CC\L	.	4.A/ 4.c 4.e	<
.	12EE\	.	.	.
2.ryy	.	.	.	.
.	12AA\J	.	.	.
.	12EE\L	.	.	.
.	12C\	.	.	.
.	.	.	16A/LL 16c 16e	.
.	12AA\J	.	.	.
.	.	.	16A/JJ 16c 16e	.
*	*	*	*tremolo	*
!LO:TUP:a:note=na niebiesko:problem=klamra łukowa	!	!	!LO:TUP:a	!
.	12EE\L	.	12A/L 12c 12e	.
.	12CC\	.	12A/ 12c 12e	.
.	12AA\J	.	12A/J 12c 12e	.
!	!	!	!LO:TUP:a	!
.	12EE\L	.	12A/L 12c 12e	.
.	12C\	.	12A/ 12c 12e	.
8ryy	.	.	.	.
.	12AA\J	.	12A/J 12c 12e	[[
*	*	*	*Xtremolo	*
*v	*v	*	*	*
=136	=136	=136	=136
*	*	*^	*
*tremolo	*	*	*	*
!	!	!	!	!LO:DY:color=blue
16EE/LL	.	4.e/	4G#X\ 4c	f
16E/	.	.	.	.
16EE/	.	.	.	.
16E/	.	.	.	.
16EE/	.	.	4r	.
16E/	.	.	.	.
16EE/	.	8c/	.	.
16E/JJ	.	.	.	.
16EE/LL	.	8G#X/L	2rdd	.
16E/	.	.	.	.
16EE/	.	8E/	.	.
16E/	.	.	.	.
16EE/	.	8G#/	.	.
16E/	.	.	.	.
16EE/	.	8c/J	.	.
16E/JJ	.	.	.	.
*Xtremolo	*	*	*	*
!!LO:PB:g=original
=137	=137	=137	=137	=137
!	!	!	!	!LO:HP:color=blue
8CC/	.	8e/L	8r	<
8E\L	.	8G#X/ 8c/	2.ryy	.
8G#X\	.	8c/ 8e/	.	.
8c\J	.	8e/J 8g#X/	.	.
8e\	.	8g#/ 8cc	.	.
8r	.	8r	.	[
!	!	!LO:TUP:a:problem=klamra łukowa	!	!
4r	.	12c/L	.	.
!	!	!	!	!LO:DY:color=blue
.	.	12c/	.	p
.	.	.	8ryy	.
.	.	12c/J	.	.
*	*	*v	*v	*
=138	=138	=138	=138
*tremolo	*	*	*
16CC/LL	.	4.c/	.
16C/	.	.	.
16CC/	.	.	.
16C/	.	.	.
16CC/	.	.	.
16C/	.	.	.
16CC/	.	16c/LL	.
16C/JJ	.	16c/JJ	.
16CC/LL	.	8c/	.
16C/	.	.	.
16CC/	.	8r	.
16C/	.	.	.
!	!	!LO:TUP:a:problem=klamra łukowa	!
16CC/	.	12B/L 12c	.
16C/	.	.	.
.	.	12B/ 12c	.
16CC/	.	.	.
.	.	12B/J 12c	.
16C/JJ	.	.	.
*Xtremolo	*	*	*
=139	=139	=139	=139
*^	*	*	*
!LO:TUP:a:note=na niebiesko:problem=klamra łukowa	!	!	!	!
8C/	12CC\L	.	4.A/ 4.c 4.e	.
.	12CC\	.	.	.
4.ryy	.	.	.	.
.	12AA\J	.	.	.
.	12EE\L	.	.	.
.	12C\	.	.	.
!	!	!	!	!LO:HP:color=blue
.	.	.	16A/LL 16c/ 16e/	<
.	12AA\J	.	.	.
.	.	.	16A/JJ 16c/ 16e/	.
!LO:TUP:a:note=na niebiesko:problem=klamra łukowa	!	!	!LO:TUP:a:problem=klamra łukowa	!
2ryy	12EE\L	.	12A/L 12c/ 12e/	.
.	12CC\	.	12A/ 12c/ 12e/	.
.	12AA\J	.	12A/J 12c/ 12e/	.
!	!	!	!LO:TUP:a:problem=klamra łukowa	!
.	12EE\L	.	12A/L 12c/ 12e/	.
.	12C\	.	12A/ 12c/ 12e/	.
.	12AA\J	.	12A/J 12c/ 12e/	[[
*v	*v	*	*	*
=140	=140	=140	=140
*	*	*^	*
*tremolo	*	*	*	*
!	!	!	!	!LO:DY:color=blue
16EE/LL 16GG	.	4.g/	4G\ 4c	sf
16E/	.	.	.	.
16EE/ 16GG	.	.	.	.
16E/	.	.	.	.
16EE/ 16GG	.	.	4r	.
16E/	.	.	.	.
16EE/ 16GG	.	8e/	.	.
16E/JJ	.	.	.	.
16EE/LL 16GG	.	8c/L	2r	.
16E/	.	.	.	.
16EE/ 16GG	.	8G/	.	.
16E/	.	.	.	.
16EE/ 16GG	.	8c/	.	.
16E/	.	.	.	.
16EE/ 16GG	.	8e/J	.	.
16E/JJ	.	.	.	.
*Xtremolo	*	*	*	*
*	*	*v	*v	*
!!LO:LB:g=original
=141	=141	=141	=141
8EE/ 8GG/ 8E/	.	8g/L	.
!	!	!	!LO:HP:color=blue
8E\L	.	8G/ 8c/	<
8G\	.	8c/ 8e/	.
8c\J	.	8e/J 8g/	.
8e\	.	8g/ 8cc/	.
8r	.	8r	.
4DD/ 4D/	.	4B/ 4f/ 4g/	[[
=142	=142	=142	=142
!	!	!	!LO:DY:color=blue
8CC/ 8C/	.	2g\ 2cc\ 2ee\ 2gg\	f
8r	.	.	.
*tuplet	*	*	*
!LO:TUP:b:problem=klamra łukowa	!	!	!
12CC/L 12C/	.	.	.
12EE/ 12E	.	.	.
12GG/J 12G	.	.	.
8.AA/L 8.A/	.	4..e\ 4..a\ 4..cc\ 4..ee\	.
16AAA/K 16AA/	.	.	.
8.AAA/ 8.AA/	.	.	.
16DD/Jk 16D/	.	16f\ 16a\ 16dd\ 16ff\	.
=143	=143	=143	=143
*^	*	*	*
2.DD\ 2.D\	4rb	.	2.f\ 2.a\ 2.dd\ 2.ff\	.
*	*Xtuplet	*	*	*
.	12F/L	.	.	.
.	12A/	.	.	.
.	12d/J	.	.	.
.	8f/	.	.	.
.	8rb	.	.	.
8.FF\L 8.F\	4ryy	.	8.d\L 8.a\ 8.cc\ 8.dd\	.
16EE\Jk 16E\	.	.	16e\Jk 16g#X\ 16b\ 16ee\	.
*v	*v	*	*	*
=144	=144	=144	=144
*tuplet	*	*	*
!LO:TUP:b:problem=klamra łukowa	!	!	!
12EE/L 12E/	.	4e/ 4g#X/ 4b/ 4ee/	.
12FF#X/ 12F#X/	.	.	.
12GG#X/J 12G#X/	.	.	.
8.AA/L 8.A/	.	8.e/L 8.a/ 8.cc/	.
16FFn/Jk 16Fn/	.	16d/Jk 16a/ 16dd/	.
4FF/ 4F/	.	4d/ 4a/ 4dd/	.
8.FF/L 8.F/	.	8.d/L 8.a/	.
16DD/Jk 16D/	.	16B/Jk 16f/ 16a/ 16b/	.
!!LO:LB:g=original
=145	=145	=145	=145
!	!	!LO:T:color=blue	!
4.EE/ 4.E/	.	[<4B/ [</4e 4g/ (>/4b	.
!	!	!LO:ACC:color=blue	!
.	.	4G#X/) 4B/] 4e/]	.
16EE/LL 16E/	.	.	.
16EE/JJ 16E/	.	.	.
8EE/L 8E/	.	4r	.
8FF/ 8F/	.	.	.
!	!	!LO:ACC:n=1:color=blue	!
8EE/ 8E/	.	4Gn/@ 4B/ 4f/ 4gn/	.
8DD/J 8D/	.	.	.
=146	=146	=146	=146
8CC/ 8C/	.	2g\ 2cc\ 2ee\ 2gg\	.
8r	.	.	.
!LO:TUP:b:problem=klamra łukowa	!	!	!
12CC/L 12C/	.	.	.
12EE/ 12E/	.	.	.
12GG/J 12G/	.	.	.
8.AA/L 8.A/	.	4..e\ 4..a\ 4..cc\ 4..ee\	.
16AAA/K 16AA/	.	.	.
8.AAA/ 8.AA/	.	.	.
16DD/Jk 16D/	.	16f\ 16a\ 16dd\ 16ff\	.
=147	=147	=147	=147
*^	*	*	*
4r	2.DD\ 2.D\	.	2.f\ 2.a\ 2.dd\ 2.ff\	.
!LO:TUP:b:problem=klamra łukowa	!	!	!	!
12F/L	.	.	.	.
12A/	.	.	.	.
12d/J	.	.	.	.
8f/	.	.	.	.
8r	.	.	.	.
4ryy	8.FF\L 8.F\	.	8.d/L 8.a/ 8.cc/ 8.dd/	.
.	16EE\Jk 16E\	.	16e/Jk 16g#X/ 16cc/ 16ee/	.
*v	*v	*	*	*
=148	=148	=148	=148
*	*	*^	*
*Xtuplet	*	*	*	*
12EE/L 12E/	.	4e/ 4g#X/ 4cc/ 4ee/	2ryy	.
12FF#X/ 12F#X/	.	.	.	.
12GG#X/J 12G#X/	.	.	.	.
8.AA/L 8.A/	.	8.e/L 8.a/ 8.cc/	.	.
16FFn/Jk 16Fn/	.	16d/Jk 16a/ 16dd/	.	.
*	*	*	*Xtuplet	*
12FF/L 12F/	.	4dd/ 4a	12d\L 12a	.
12EE/ 12E/	.	.	12g#\	.
12DD/J 12D/	.	.	12f\J	.
8.DD/L 8.D/	.	8.c/L 8.f/ 8.a/	4ryy	.
16GG#/Jk 16G#/	.	16d/Jk 16f/ 16gn/ 16b/	.	.
*	*	*v	*v	*
!!LO:LB:g=original
=149	=149	=149	=149
4GG\ 4G	.	(<4d/ 4f/ 4g/ (>/4b	.
8CC\L 8C	.	8c/) 8e/ 8g/ 8cc/)	.
16GG\L	.	8r	.
16GG\JJ	.	.	.
8CC\L 8C	.	4r	.
8GG\	.	.	.
8EE\ 8E	.	8r	.
8CC\J 8C	.	16e/LL 16g/ 16cc/	.
.	.	16e/JJ 16g/ 16cc/	.
=150	=150	=150	=150
*^	*	*	*
8.GG\L 8.G	4ryy	.	8.g/L 8.b/ 8.dd/	.
16EE\Jk 16E	.	.	16e/Jk 16g#X/ 16b/ 16ee/	.
!LO:TUP:b:problem=klamra łukowa	!	!	!	!
12E/L	4EE\ 4E	.	4e/ 4g#/ 4b/ [>/4ee	.
12G#X/	.	.	.	.
12B/J	.	.	.	.
!	!	!LO:DY:rj:color=blue	!	!
8CC\L 8C	2ryy	sf	8e/L 8a/ 8ee/]	.
8AA\ 8A	.	.	8e/ 8a/ 8cc/	.
8AA\ 8A	.	.	8e/ 8a/ 8cc/	.
8FF\J 8F	.	.	8d/J 8a/ 8cc/ 8dd/	.
=151	=151	=151	=151	=151
*	*	*	*^	*
8.FF\L 8.F	4ryy	.	8.d\L 8.a\ 8.cc\ 8.dd\	2.ryy	.
16EE\Jk 16E	.	.	16e\Jk 16g#X\ 16b\ 16ee\	.	.
!LO:TUP:b:problem=klamra łukowa	!	!	!	!	!
12E/L	4EE\ 4E	.	[<4e\ 4g#\ 4b\ [>\4ee	.	.
12G#X/	.	.	.	.	.
12B/J	.	.	.	.	.
!	!	!LO:DY:rj:color=blue	!	!	!
8CC\L 8C	2ryy	sf	8e\L] 8a\ 8ee\]	.	.
8AA\ 8A	.	.	8e\J 8a\ 8cc\	.	.
*	*	*	*tuplet	*	*
!	!	!	!LO:TUP:b:note=na niebiesko:problem=klamra łukowa	!	!
8AA\ 8A	.	.	12cc/L	12e\L@ 12a\	.
.	.	.	12cc/	12e\@ 12a\@	.
8FF\J 8F	.	.	.	.	.
.	.	.	12dd/J	12d\J 12a\	.
*v	*v	*	*	*	*
*	*	*v	*v	*
=152	=152	=152	=152
8.FF/L 8.F/	.	8.d/L 8.a/ 8.dd/	.
16AA/K 16A/	.	16e/K 16a/ 16cc/	.
8.AA/ 8.A/	.	8.e/ 8.a/ 8.cc/	.
16FF/Jk 16F/	.	16d/Jk 16a/ 16dd/	.
*	*	*Xtuplet	*
12FF/L 12F/	.	12d/L 12a/ 12dd/	.
12AA/ 12A/	.	12e/ 12a/ 12cc/	.
12FF/J 12F/	.	12d/J 12a/ 12dd/	.
12EE/L 12E/	.	12e/L 12a/ 12cc/ 12ee/	.
12DD/ 12D/	.	12f/ 12a/ 12cc/ 12ff/	.
12FF/J 12F/	.	12d/J 12a/ 12cc/ 12dd/	.
!!LO:LB:g=original
=153	=153	=153	=153
!	!	!LO:S:color=blue	!
!	!	!LO:T:color=blue	!
4.EE/ 4.E	.	[<4e/ [</4g [</4b (>/4ee	.
.	.	4B/) 4e/] 4g/] 4b/]	.
16EE/LL 16E	.	.	.
16EE/JJ 16E	.	.	.
8FF/L 8F	.	4r	.
8EE/ 8E	.	.	.
8DD#X/ 8D#X	.	8r	.
8EE/J 8E	.	8B/ 8e 8g 8b	.
=154	=154	=154	=154
*^	*	*	*
8.AA/L 8.A	4ryy	.	8.c/L 8.e/ 8.a/ 8.cc/	.
16FF/Jk 16F	.	.	16d/Jk 16a 16dd	.
*tremolo	*	*	*	*
!LO:TUP:b:problem=klamra łukowa	!	!	!	!
12F/L	4FF\ 4F	.	[<4d/ [>4a [>4dd	.
12A/	.	.	.	.
12d/J	.	.	.	.
*Xtremolo	*	*	*	*
!	!	!LO:DY:rj:color=blue	!	!
8DD/L 8D	2ryy	sf	8d/L] 8a/] 8dd/]	.
8FF/ 8F	.	.	8d/ 8a	.
8FF/ 8F	.	.	8d/ 8a	.
8EE/J 8E	.	.	8e/J 8g#X 8b	.
=155	=155	=155	=155	=155
*	*	*	*^	*
8.AA\L 8.A	4ryy	.	8.e/L 8.a 8.cc	2.ryy	.
16FF\Jk 16F	.	.	16d/Jk 16a 16dd	.	.
!LO:TUP:b:problem=klamra łukowa	!	!	!	!	!
12F/L	4FF\ 4F	.	[<4d/ [>4a [>4dd	.	.
12A/	.	.	.	.	.
12d/J	.	.	.	.	.
!	!	!LO:DY:rj:color=blue	!	!	!
8DD/L 8D	2ryy	sf	4d/] 4a] 4dd]	.	.
8FF/ 8F	.	.	.	.	.
*	*	*	*tremolo	*	*
!	!	!	!LO:TUP:a:problem=klamra łukowa	!	!
8FF/ 8F	.	.	12d/L 12a	12d\L	.
.	.	.	12a/	12ryy	.
8EE/J 8E	.	.	.	.	.
.	.	.	12e/J 12g#X 12b	12e\J	.
*v	*v	*	*	*	*
*	*	*v	*v	*
=156	=156	=156	=156
8.AA/L 8.A	.	8.e/L 8.a/ 8.cc/	.
16DD/K 16D	.	16f/K 16a 16b	.
8.DD/ 8.D	.	8.f/ 8.a 8.b	.
16AA/Jk 16A	.	16e/Jk 16a 16cc	.
*	*	*Xtremolo	*
!	!	!LO:TUP:b:problem=klamra łukowa	!
12AA/L 12A	.	12e/L 12a 12cc	.
12DD/@ 12D@	.	12f/ 12a 12b	.
12AA/J 12A	.	12e/J 12a 12cc	.
!	!	!LO:TUP:b:problem=klamra łukowa	!
12FF/L 12F	.	12d/L 12a 12dd	.
12CC/ 12C	.	12e/ 12a 12ee	.
12DD/J 12D	.	12c/J 12f 12a	.
!!LO:LB:g=original
=157	=157	=157	=157
(<4DD#X/ 4D#X/	.	(<4c/ 4f#X/ (>/4a (>/4cc	.
12EE/L 12E/	.	8B/) 8g#X) 8b)	.
12FF#X/ 12F#X/	.	.	.
.	.	8r	.
12GG#X/J) 12G#X/	.	.	.
(<4EE#X/ 4E#X/	.	(<4d/ 4g#/ (>/4b (>/4dd	.
12FF#/L 12F#/	.	8c#X/) 8a/) 8cc#X/)	.
12GG#/ 12G#/	.	.	.
.	.	8r	.
12AA/J) 12A/	.	.	.
=158	=158	=158	=158
*^	*	*	*
4.GG\ 4.G	8rg	.	[<4e/ 4a#X/ (>/4cc#X [>/4ee	.
.	(<8G/L	.	.	.
.	8A#X/J	.	12e/L]) 12ee]	.
.	.	.	12d#X/ 12dd#X	.
[<8GGG/ [>/8GG	8c/)	.	.	.
.	.	.	12c#X/J 12cc#	.
12GGG/L] 12GG]	2ryy	.	4e/ 4a# 4cc# 4ee	.
12GGG/ 12GG	.	.	.	.
12AAA#X/J 12AA#X	.	.	.	.
12CC#X/L 12C#X	.	.	8r	.
12EE/ 12E	.	.	.	.
.	.	.	8e/ 8a#/ 8cc#/ 8ee/	.
12GG/J 12G	.	.	.	.
=159	=159	=159	=159	=159
4.AA#X\ 4.A#X	8rg	.	[<4g\ 4cc#X 4ee [>4gg	.
.	(<8A#/L	.	.	.
.	8c#X/J	.	12g\L] 12gg]	.
.	.	.	12f#X\ 12ff#X	.
[<8AAA#X/ [>8AA#	8e/)	.	.	.
.	.	.	12e\J 12ee	.
12AAA#/L] 12AA#]	2ryy	.	4g\ 4cc# 4ee 4gg	.
12AAA#/ 12AA#	.	.	.	.
12CC#X/J 12C#X	.	.	.	.
12EE/L 12E	.	.	8r	.
12GG/ 12G	.	.	.	.
.	.	.	8g\ 8cc#\ 8ee\ 8gg\	.
12AA#/J 12A#	.	.	.	.
*v	*v	*	*	*
=160	=160	=160	=160
!	!	!LO:S:color=blue	!
8BB\L 8B	.	(>4g#X\ 4b\ 4ee\ 4gg#X\	.
8E\J 8e	.	.	.
8.C\L 8.c	.	8.e\L 8.g#\ 8.ee\	.
16AA\Jk 16A	.	16cc#X\Jk 16ee\ 16ccc#X\	.
8AA/L 8A	.	4.cc#\ 4.ee\ 4.ccc#\	.
8GG#X/ 8G#X	.	.	.
8FF##X/ 8F##X	.	.	.
8GG#/J 8G#	.	[<8b\) [>\8ee [>\8bb	.
!!LO:PB:g=original
=161	=161	=161	=161
4GG#X\ 4G#X	.	8b\L] 8ee] 8bb]	.
.	.	8g#X\ 8gg#X	.
8.C#X\L 8.c#X	.	8.e\ 8.g# 8.ee	.
16FF#X\Jk 16F#X	.	16a\Jk 16cc#X 16aa	.
8FF#/L 8F#	.	4a\ 4cc# 4aa	.
8C#/	.	.	.
8EE/ 8E	.	4a\ 4cc# 4gg#	.
8C#/J	.	.	.
=162	=162	=162	=162
8EE-X/L 8E-X	.	4a-X\ 4ccn 4aa-X	.
8C-X/ 8c-X	.	.	.
8.AA-X/ 8.A-X	.	8.e-X\L 8.cc 8.ee-X	.
16EE-/Jk 16E-	.	16cc\Jk 16ee- 16ccc	.
8EE-/L 8E-	.	4.cc\ 4.ee- 4.ccc	.
8DD-X/ 8D-X	.	.	.
8CC/ 8C-	.	.	.
8DD-/J 8D-	.	8b-X\ 8ee- 8bb-X	.
=163	=163	=163	=163
4.CC/ 4.C	.	8b-X\L 8ee 8bb-X	.
.	.	8a-X\ 8ee 8aa-X	.
.	.	8cc\ 8ee 8ccc	.
8CC-X/ 8C-X	.	8ee-X\J 8ff 8eee-X	.
8BBB-X/L 8BB-X	.	4.ee-\ 4.ff 4.eee-	.
8AAA/ 8AA	.	.	.
8BBB-/ 8BB-	.	.	.
8FF/J 8F	.	8dd-X\ 8ff 8ddd-X	.
=164	=164	=164	=164
*^	*	*	*
4.FF#X\ 4.F#X\	8rd	.	[<4cc\ 4ee-X (>4aa [>4ccc	.
!LO:TUP:b:problem=klamra łukowa	!	!	!	!
.	12A/L	.	.	.
.	12c/J	.	.	.
.	.	.	12cc\L]) 12ccc]	.
.	12e-X/	.	.	.
.	.	.	12b\ 12bb	.
[<8FFF#X\ [>8FF#X	8rB	.	.	.
.	.	.	12a\J 12aa	.
12FFF#/L] 12FF#]	2ryy	.	4cc\ 4ee- 4aa 4ccc	.
12FFF#/ 12FF#	.	.	.	.
12AAA/J 12AA	.	.	.	.
12CC/L 12C	.	.	8r	.
12EE-X/ 12E-X	.	.	.	.
.	.	.	8cc\ 8ee- 8aa 8ccc	.
12FF#/J 12F#	.	.	.	.
!!LO:LB:g=original
=165	=165	=165	=165	=165
4.AA\ 4.A	8rb	.	[<4ee-X\ 4bb-X\ [>\4eee 4aaa-X\	.
!LO:TUP:a:problem=klamra łukowa	!	!	!	!
.	12c>\L	.	.	.
.	12e-X>\J	.	.	.
.	.	.	12ee-\L] 12eee\]	.
.	12g-X>\	.	.	.
.	.	.	12dd\ 12ddd\	.
[<8AAA/ [>/8AA	8ryy	.	.	.
.	.	.	12cc\J 12ccc\	.
12AAA/L] 12AA/]	2ryy	.	4ee-\ 4gg\ 4ccc\ 4eee\	.
12AAA/ 12AA/	.	.	.	.
12CC/J 12C/	.	.	.	.
12EE-X/L 12E-X/	.	.	8r	.
12FF#X/ 12F#X/	.	.	.	.
.	.	.	8e-X\ 8g-X\ 8cc\ 8ee-X\	.
12AA/J 12A/	.	.	.	.
*v	*v	*	*	*
=166	=166	=166	=166
8GG\L 8G	.	4en/ 4gn/ 4cc/ 4een/	.
8C\ 8c	.	.	.
8AA\ 8A	.	8.c\L 8.e\ 8.cc\	.
8GG\J 8G	.	.	.
.	.	16a\Jk 16cc\ 16aa\	.
8FF/L 8F	.	4.a\ 4.cc\ 4.aa\	.
8EE/ 8E	.	.	.
8DD#X/ 8D#X	.	.	.
8EE/J 8E	.	8g\ 8cc\ 8gg\	.
=167	=167	=167	=167
4EE/ 4E	.	8g\L 8cc\ 8gg\	.
.	.	8e\ 8g\ 8ee\	.
8.AA/L 8.A	.	8.c\ 8.e\ 8.cc\	.
16DD/Jk 16D	.	16f\Jk 16a\ 16ff\	.
!LO:TX:t=P:problem=półtorej taktu w lewej ręce niewidoczne	!	!	!
2ryy	.	4f\ 4a\ 4ff\	.
.	.	4e\ 4a\ 4ee\	.
=168	=168	=168	=168
1ryy	.	8.e\L 8.a 8.ee	.
.	.	[<16d\Jk [>16a [>16dd	.
.	.	4d\] 4a] 4dd]	.
.	.	8d\L 8a 8dd	.
.	.	8e\ 8ee	.
.	.	8f\ 8ff	.
.	.	8a\J 8aa	.
!!LO:LB:g=original
=169	=169	=169	=169
[<4DD/ [>/4D	.	8.g\L 8.a\ 8.gg\	.
.	.	16f\Jk 16a\ 16ff\	.
8.DD/L] 8.D/]	.	[<4f\ [>\4a [>\4ff	.
16CC#X/Jk 16C#X/	.	.	.
4DD/ 4D/	.	8f\L] 8a\] 8ff\]	.
.	.	(>8g\ 8gg\	.
4F\ 4A\ 4d\	.	8a\ 8aa\	.
.	.	8dd\J) 8ddd\	.
=170	=170	=170	=170
*^	*	*^	*
4r	2GG\ 2G	.	8cc\L 8ccc	2.dd\	.
.	.	.	8b\ 8bb	.	.
4G/ 4B/ 4f/	.	.	8a#X\ 8aa#X	.	.
.	.	.	[<8b\J [>8bb	.	.
4r	2GG#X\ 2G#X	.	(>8b\L] 8bb]	.	.
.	.	.	8cc\J) 8ccc	.	.
!	!	!	!LO:TUP:a:problem=klamra łukowa	!	!
4G#/ 4B/ 4f/	.	.	12dd\L 12ddd	4ryy	.
.	.	.	12ff\ 12fff	.	.
.	.	.	12ee\J 12eee	.	.
=171	=171	=171	=171	=171	=171
4r	2GG\ 2A	.	8dd\L 8ddd	2.ee\	.
.	.	.	8cc\ 8ccc	.	.
4A/ 4c/ 4e/	.	.	8b\ 8bb	.	.
.	.	.	8cc\J 8ccc	.	.
!	!	!	!LO:TX:t=P:problem=półtorej taktu w prawej ręce niewidoczne	!	!
4r	2BB\ 2B	.	2ryy	.	.
4B/ 4d/ 4g/	.	.	.	4ryy	.
*	*	*	*v	*v	*
=172	=172	=172	=172	=172
!	!	!	!LO:TX:t=P:[FV::problem=nuty zapisane na przypiętej kartce nie pomagają mi wypełnić taktów;JM&colon;potwierdzam, zapis niewiele wyjaśnia, które miejsa powinny być uzupełnione zgodnie z poprawkami]	!
8C/L 8c	4C\ 4c	.	1ryy	.
8c/ 8e/ 8g/	.	.	.	.
8GG#X/ 8G#X	4GG#\ 4G#	.	.	.
8G#/J 8B/ 8f#y/	.	.	.	.
8AA/L 8A	4AA\ 4A	.	.	.
8A/ 8c/ 8e/	.	.	.	.
8EE/ 8E	4EE\ 4E	.	.	.
8E/J 8Gn/ 8c/	.	.	.	.
!!LO:LB:g=original
=173	=173	=173	=173	=173
8FF/L 8F	4FF\ 4F	.	8.b-X\L 8.cc\ 8.bb-X\	.
8F/ 8A/ 8c/	.	.	.	.
.	.	.	16a\Jk 16cc\ 16aa\	.
8CC#X/ 8C#X	4CC#X\ 4C#X	.	12a\L 12aa\	.
!	!	!	!LO:TX:b:t=te-nu-to:dur=3q:ext=ud:problem=text with extention lines	!
.	.	.	12ee\ 12eee\	.
8G/J 8A/ 8e/	.	.	.	.
.	.	.	12g\J 12gg\	.
8r	4DD\ 4D\	.	8.g\L 8.a\ 8.gg\	.
8A/ 8d/	.	.	.	.
.	.	.	16f\K 16a\ 16ff\	.
8EE\L 8E\	4ryy	.	8e\ 8a\ 8ee\	.
8FF\J 8F\	.	.	8d\J 8dd\	.
=174	=174	=174	=174	=174
!	!	!	!LO:S:color=blue	!
!	!	!	!LO:TX:a:t=piu mosso:color=blue	!
[>1G [>1c	8E\L	.	(>4.g\ 4.cc 4.gg	.
.	8D\	.	.	.
.	8C\	.	.	.
.	8D\J	.	8ee\	.
.	[<2E\	.	8cc\L	.
.	.	.	8g\	.
.	.	.	8cc\	.
.	.	.	8ee\J)	.
=175	=175	=175	=175	=175
!	!	!	!LO:S:color=blue	!
8G/L] 8c]	2.E\]	.	(>4.g\ 4.cc\ 4.gg\	.
8G/	.	.	.	.
8E/	.	.	.	.
8G/J	.	.	8f#X\ 8cc\ 8ff#X\	.
4c/	.	.	4g\) 4cc\ 4gg\	.
4E\ 4G#X\ 4e\	4ryy	.	4g#X\ 4cc\ 4gg#X\	.
*v	*v	*	*	*
=176	=176	=176	=176
!	!	!LO:S:color=blue	!
4.F\ 4.A 4.c	.	(>8a\L 8cc\ 8aa\	.
.	.	8b-X\ 8bb-X\	.
.	.	8bn\ 8bbn\	.
8C/	.	8cc\J 8ccc\	.
8AA/L	.	8ff\) 8fff\	.
8FF/	.	8r	.
8AA/	.	8r	.
8C/J	.	8a\ 8cc\ 8aa\	.
!!LO:LB:g=original
=177	=177	=177	=177
*^	*	*^	*
!	!	!	!	!LO:S:color=blue	!
2.A/ 2.c/	4.F\	.	2.aa/	(>8a\L 8cc	.
.	.	.	.	8a\	.
.	.	.	.	8f\	.
.	8E\	.	.	8a\J	.
.	4F\	.	.	4cc\)	.
4F\ 4A\ 4c#X\	4ryy	.	4a\ 4cc#X\ 4aa\	4ryy	.
*	*	*	*v	*v	*
=178	=178	=178	=178	=178
!	!	!	!LO:S:color=blue	!
[>1A [>1d	8F#X\L	.	(>4.a\ 4.dd\ 4.aa\	.
.	8E\	.	.	.
.	8D\	.	.	.
.	8E\J	.	8ff#X\	.
.	2F#\	.	8dd\L	.
.	.	.	8a\	.
.	.	.	8dd\	.
.	.	.	8ff#\J)	.
*v	*v	*	*	*
=179	=179	=179	=179
!	!	!LO:S:color=blue	!
2.F\ 2.A\] 2.d\]	.	(>4.a\ 4.dd\ 4.aa\	.
.	.	8g#X\ 8dd\ 8gg#X\	.
.	.	4a\) 4dd\ 4aa\	.
4F#X\ 4A#X\ 4d\	.	4a#X\ 4dd\ 4aa#X\	.
=180	=180	=180	=180
!	!	!LO:S:color=blue	!
4.G\ 4.B\ 4.d\	.	(>8b\L 8bb\	.
.	.	8cc\ 8ccc\	.
.	.	8cc#X\ 8ccc#X\	.
8D\	.	8dd\J 8ddd\	.
!LO:S:color=blue	!	!	!
(<8BB/L	.	8gg\) 8ggg\	.
8GG/	.	8r	.
8BB/	.	8r	.
8D/J)	.	8b\ 8dd\ 8bb\	.
!!LO:LB:g=original
=181	=181	=181	=181
*^	*	*	*
!	!LO:S:color=blue	!	!	!
2.B/ 2.d	(<4.G\	.	2.b\ 2.dd 2.bb	.
.	8F#X\	.	.	.
.	4G\)	.	.	.
4B/ 4d#X	4G\	.	4b\ 4dd#X 4bb	.
=182	=182	=182	=182	=182
!	!	!	!LO:S:color=blue	!
[>1B [>1e	8G#X\L	.	(>4.b\ 4.ee 4.bb	.
.	8F#X\	.	.	.
.	8E\	.	.	.
.	8F#\J	.	8gg#X\	.
.	[<2G#\	.	8ee\L	.
.	.	.	8b\	.
.	.	.	8ee\	.
.	.	.	8gg#\J)	.
*v	*v	*	*	*
=183	=183	=183	=183
!	!	!LO:S:color=blue	!
4.G#\] 4.B] 4.e]	.	(>4.b\ 4.ee 4.bb	.
8G#X\ 8B#X 8e	.	8b#X\ 8ee 8bb#X	.
!	!	!LO:TX:b:t=ac-cel-le-ran-do:dur=25q:ext=ud:problem=text with extention lines	!
4A\ 4c#X 4e	.	4cc#X\) 4ee 4ccc#X	.
4A\ 4c# 4e#X	.	4cc#\ 4ee#X 4ccc#	.
=184	=184	=184	=184
*^	*	*	*
!	!	!	!LO:S:color=blue	!
[>1c#X [>1f#X	8A#X\L	.	(>4.cc#X\ 4.ff#X 4.ccc#X	.
.	8G#X\	.	.	.
.	8F\	.	.	.
.	8G#\J	.	8aa#X\	.
.	[<2A#\	.	8ff#\L	.
.	.	.	8cc#\	.
.	.	.	8ff#\	.
.	.	.	8aa#\J)	.
*v	*v	*	*	*
!!LO:PB:g=original
=185	=185	=185	=185
!	!	!LO:S:color=blue	!
4.A#\] 4.c#\] 4.f#\]	.	(>4.cc#X\ 4.ff#X\ 4.ccc#X\	.
8A#X\ 8c##X\ 8f#X\	.	8cc##X\ 8ff#\ 8ccc##X\	.
4B\ 4d#X\ 4f#\	.	4dd#X\ 4ff#\ 4ddd#X\	.
4B\ 4d#\ 4f##X\	.	4dd#\) 4ff##X\ 4ddd#\	.
=186	=186	=186	=186
*^	*	*	*
!	!LO:S:color=blue	!	!LO:S:color=blue	!
[>2e-X/ 2g	(<8c\L	.	(>4.ee-X\ 4.gg\ 4.eee-X\	.
.	8B\J	.	.	.
.	4c\)	.	.	.
.	.	.	8ccc\	.
!	!LO:S:color=blue	!	!	!
[>2c/ 2e-]	(<8G\L	.	8gg\L	.
.	8F#X\J	.	8ee-\	.
.	4G\)	.	8gg\	.
.	.	.	8ccc\J)	.
=187	=187	=187	=187	=187
!	!LO:S:color=blue	!	!LO:S:color=blue	!
[>2G/ 2c]	(<8E-X\L	.	(>4.cc\ 4.gg\ 4.ccc\	.
.	8D\J	.	.	.
.	4E-\)	.	.	.
.	.	.	8gg\	.
!	!LO:S:color=blue	!	!	!
2E-/ 2G]	(<8C\L	.	8ee-X\L	.
.	8BB\J	.	8cc\	.
.	4C\)	.	8ee-\	.
.	.	.	8gg\J)	.
=188	=188	=188	=188	=188
!	!LO:S:color=blue	!	!LO:S:color=blue	!
[>2e/ 2a-X	(<8c-X\L	.	(>4.ee-X\ 4.aa-X\ 4.eee-X\	.
.	8B\J	.	.	.
.	4c-\)	.	.	.
.	.	.	8ccc\	.
!	!LO:S:color=blue	!	!	!
2c-/ 2e]	(<8A-X\L	.	8aa-\L	.
.	8G\J	.	8ee-\	.
.	4A-\)	.	8aa-\	.
.	.	.	8ccc\J)	.
!!LO:LB:g=original
=189	=189	=189	=189	=189
!	!LO:S:color=blue	!	!LO:S:color=blue	!
2A-X/ 2c	(<8E-X\L	.	(>4.cc\ 4.ee-X\ 4.ccc\	.
.	8D\J	.	.	.
.	4E-\)	.	.	.
.	.	.	8aa-X\	.
!	!LO:S:color=blue	!	!	!
2En/ 2A-	(<8C\L	.	8ee-\L	.
.	8BB\J	.	8cc\	.
.	4C\)	.	8ee-\	.
.	.	.	8aa-\J)	.
*v	*v	*	*	*
=190	=190	=190	=190
!	!	!LO:TX:b:t=e cres_cen_do:problem=dynamics with extention lines	!LO:HP:t=e cres-cen-do:ext=ud
(>8.C\L 8.c\	.	4f#X\ 4an\ 4ee-X\	<
16BB\Jk 16B\	.	.	.
!	!	!LO:TX:b:t=ri-te-nu-to:dur=7q:ext=ud:problem=text with extention lines	!
4BB-X\) 4B-X\	.	4g-X\ 4b-X\ 4ee-\	.
(>8.AA\L 8.A\	.	4g-\ 4cc-X\ 4ee-\	.
16AA-X\Jk 16A-X\	.	.	.
4GG\) 4G\	.	4gn\ 4ccn\ 4ee-\	.
=191	=191	=191	=191
8.FF#X/L 8.F#X/	.	(>4a\ 4cc\ 4ee-X\	.
16FFn/Jk 16Fn/	.	.	.
8.EE/L 8.E/	.	8.a\L) 8.cc\ 8.een\	.
16EE-X/Jk 16E-X/	.	16a\Jk 16cc\ 16ff\	.
!	!	!LO:TX:a:t=a:color=blue	!
8DD/L 8D/	.	4.a\ 4.cc\ 4.ff\	.
8EEn/ 8En/	.	.	.
8DD/ 8D/	.	.	.
8FF/J 8F/	.	8a\ 8cc\ 8dd\	[[
=192	=192	=192	=192
!	!	!LO:TX:a:t=Tempo o	!
8qGG/ 8qG/	.	.	.
*	*	*^	*
2G\ 2g\	.	2cc/ 2ee	16g\LL 16cc\ 16ee\ 16gg\	.
.	.	.	16g\	.
.	.	.	16gg\	.
.	.	.	16g\JJ	.
.	.	.	16gg\LL	.
.	.	.	16g\	.
.	.	.	16gg\	.
.	.	.	16g\JJ	.
4..E\ 4..e\	.	2ryy	16cc\LL 16gg	.
.	.	.	16g\	.
.	.	.	16cc\ 16gg	.
.	.	.	16g\JJ	.
.	.	.	8.g\L 8.cc\ 8.gg\	.
16F\ 16f\	.	.	16g\Jk 16dd\ 16gg\	.
!!LO:LB:g=original
=193	=193	=193	=193	=193
(<2.F\ (>\2.f	.	16gg\LL	2.dd\	.
.	.	16g\	.	.
.	.	16gg\	.	.
.	.	16g\JJ	.	.
.	.	16gg\LL	.	.
.	.	16g\	.	.
.	.	16gg\	.	.
.	.	16g\JJ	.	.
.	.	16gg\LL	.	.
.	.	16g\	.	.
.	.	16gg\	.	.
.	.	16g\JJ	.	.
8.D\L) 8.d\)	.	8.g\L 8.b 8.gg	4ryy	.
16E\Jk 16e\	.	16g\Jk 16cc 16gg	.	.
*	*	*v	*v	*
=194	=194	=194	=194
(<4E\ (>\4e	.	[<4g\ (<\4cc 4gg\	.
8.C\L) 8.c\)	.	8.g\L] 8.ee\) 8.gg\	.
16D\Jk 16d\	.	16g\Jk 16ff\ 16gg\	.
4D\ 4d\	.	[<4g\ (<4ff [>4gg	.
8.AA\L 8.A\	.	8.g\L] 8.cc) 8.gg]	.
16BB\Jk 16B\	.	16g\Jk 16dd 16gg	.
=195	=195	=195	=195
(<4BB\ (>\4B	.	16dd\LL 16gg	.
.	.	16g\	.
.	.	16gg\	.
.	.	16g\JJ	.
4GG\) 4G\)	.	16dd\LL 16gg	.
.	.	16g\	.
.	.	16gg\	.
.	.	16g\JJ	.
8r	.	16gg\LL	.
.	.	16g\	.
8FF/L 8F/	.	16b\ 16dd 16gg	.
.	.	16g\JJ	.
8EE/ 8E/	.	16cc\LL 16ee\ 16gg\	.
.	.	16g\	.
8DD/J 8D/	.	16b\ 16ff 16gg	.
.	.	16g\JJ	.
=196	=196	=196	=196
8EE\ 8E\	.	2g\ 2cc\ 2ee\ 2gg\	.
8r	.	.	.
*tuplet	*	*	*
!LO:TUP:a:problem=klamra łukowa	!	!	!
12E\L	.	.	.
12G\	.	.	.
12c\J	.	.	.
4..A\ 4..c\ 4..e\	.	4..a\ 4..cc\ 4..ee\	.
16DD/ 16D	.	16f\ 16a 16dd 16ff	.
!!LO:LB:g=original
=197	=197	=197	=197
8DD\ 8D	.	2.f\ 2.a 2.dd 2.ff	.
8r	.	.	.
!LO:TUP:a:problem=klamra łukowa	!	!	!
12F\L	.	.	.
12A\	.	.	.
12d\J	.	.	.
4f\	.	.	.
8.FF/L 8.F	.	8.d\L 8.a\ 8.cc\ 8.dd\	.
16EE/Jk 16E	.	16e\Jk 16g#X\ 16b\ 16ee\	.
=198	=198	=198	=198
!LO:TUP:b:problem	!	!	!
12EE/L 12E/	.	(>4e/ 4g#X/ 4b/ 4ee/	.
12FF#X/ 12F#X/	.	.	.
12GG#X/J 12G#X/	.	.	.
8.AA/L 8.A	.	8.e/L) 8.a/ 8.cc/	.
16FFn/Jk 16Fn	.	16d/Jk 16a/ 16dd/	.
4FF/ 4F	.	(>4d/ 4a/ 4dd/	.
8.DD/L 8.D	.	8.c/L 8.f/ 8.a/	.
16GG#/Jk 16G#	.	16d/Jk) 16f/ 16b/	.
=199	=199	=199	=199
4GG/ 4G	.	8d/ 8f/ 8b/	.
.	.	8r	.
*Xtuplet	*	*	*
!	!	!LO:S:color=blue	!
!	!	!LO:T:color=blue	!
12GG/L 12G	.	(<2c/ [>/2e (>/2cc	.
12C/	.	.	.
12E/J	.	.	.
4.G\	.	.	.
.	.	4e/] 4g) 4cc#X)	.
8GG/	.	.	.
=200	=200	=200	=200
*tremolo	*	*	*
!	!	!LO:S:color=blue	!
(16GG/LL	.	(>4.f/ 4.a/ 4.dd/	.
16G/)	.	.	.
(16GG/	.	.	.
16G/)	.	.	.
(16GG/	.	.	.
16G/)	.	.	.
(16GG/	.	8e/ 8a/ 8cc#X/	.
16G/JJ)	.	.	.
(16GG/LL	.	8f/L) 8a/ 8dd/	.
16G/)	.	.	.
(16GG/	.	8A/ 8d/ 8f/	.
16G/)	.	.	.
(16GG/	.	8d/ 8f/ 8a/	.
16G/)	.	.	.
(16GG/	.	8f/J 8a/ 8dd/	.
16G/JJ)	.	.	.
*Xtremolo	*	*	*
!!LO:LB:g=original
=201	=201	=201	=201
[<4GG\ [>4G	.	8e/ 8a/ 8cc#X/	.
.	.	8r	.
*tuplet	*	*	*
!LO:TUP:a:problem=klamra łukowa	!	!LO:S:color=blue	!
12GG\L] 12G]	.	(<2f/ (<2a (>2dd	.
12D\	.	.	.
12F\J	.	.	.
4.A\	.	.	.
.	.	4f#X/) 4cc#/) 4dd#X/)	.
8GG/	.	.	.
=202	=202	=202	=202
*tremolo	*	*	*
16GG/LL	.	(>4.g/ 4.cc/ 4.ee/	.
16G/	.	.	.
16GG/	.	.	.
16G/	.	.	.
16GG/	.	.	.
16G/	.	.	.
16GG/	.	8f#X/ 8cc/ 8dd#X/	.
16G/JJ	.	.	.
16GG/LL	.	8g/L) 8cc/ 8ee/	.
16G/	.	.	.
16GG/	.	8c/ 8e/ 8g/	.
16G/	.	.	.
16GG/	.	8e/ 8g/ 8cc/	.
16G/	.	.	.
16GG/	.	8g/J 8cc/ 8ee/	.
16G/JJ	.	.	.
*Xtremolo	*	*	*
=203	=203	=203	=203
[<4GG\ [>4G	.	8a\ 8cc 8ff	.
.	.	8r	.
!LO:TUP:a:problem=klamra łukowa	!	!	!
12GG\L] 12G]	.	4.f\ 4.a 4.dd	.
12D\	.	.	.
12F\J	.	.	.
4.A\	.	.	.
.	.	8e\L 8a 8cc#X	.
.	.	8f\ 8a 8dd	.
8GG/	.	8a\J 8dd 8ff	.
=204	=204	=204	=204
(>8GG\L	.	[<2dd\ [>2ff (>2aa	.
8GG\	.	.	.
8D\	.	.	.
8F\J	.	.	.
8A\L	.	4dd] 4a\) 4ff]	.
8d\J)	.	.	.
8f\	.	8r	.
8r	.	8a\ 8dd 8ff	.
!!LO:LB:g=original
=205	=205	=205	=205
[<4GG\ [>4G	.	8cc\ 8ff 8aa	.
.	.	8r	.
!LO:TUP:a:problem=klamra łukowa	!	!	!
12GG\L] 12G]	.	4.a\ 4.dd 4.ff	.
12D\	.	.	.
12F\J	.	.	.
4.A\	.	.	.
.	.	8g\L 8dd 8ee	.
.	.	8a\ 8dd 8ff	.
8GG/	.	8dd\J 8ff 8aa	.
=206	=206	=206	=206
!	!	!LO:T:color=blue	!
!	!	!LO:S:color=blue	!LO:DY:rj
(>8GG\L	.	[<2ff\ [<2aa (>2ddd	p
8D\	.	.	.
8F\	.	.	.
8A\J	.	.	.
8d\L	.	4dd\) 4ff\] 4aa\]	.
8f\	.	.	.
8a\J)	.	8r	.
8r	.	8dd\ 8ff\ 8aa\	.
=207	=207	=207	=207
!	!	!LO:S:color=blue	!
(>8GG\L	.	(>2cc\ 2ee-X\ 2ff#X\ 2ccc\	.
8C\	.	.	.
8E-X\	.	.	.
8F#X\J)	.	.	.
(>8C\L	.	4.b\ 4.ee-\ 4.ff#\ 4.bb\	.
8E-\	.	.	.
8F#\	.	.	.
8A\J)	.	8a\) 8cc\ 8ee-\ 8aa\	.
=208	=208	=208	=208
(>8GG\L	.	8a\ 8cc\ 8een\ 8aa\	.
8C\	.	8r	.
8EnX\	.	[<4g\ [>\4cc [>\4ee [>\4gg	.
!LO:SIC:v:s:t=8F#	!	!	!
8F\J)	.	.	.
!	!	!LO:S:color=blue	!
(>8C\L	.	(>8g\L] 8cc\] 8ee\] 8gg\]	.
8E\	.	16a\L 16aa	.
.	.	16g\JJ 16gg	.
!LO:SIC:v:s:t=8F#	!	!	!
8F\	.	8f#X\L 8ff#X	.
8A\J)	.	8g\J) 8gg	.
!!LO:PB:g=original
=209	=209	=209	=209
!	!	!LO:S:color=blue	!
(>8GG\L	.	(>4.cc\ 4.ee 4.ff#X 4.ccc	.
8C\	.	.	.
8E-X\	.	.	.
8F#X\J)	.	16dd\LL 16ddd	.
.	.	16cc\JJ 16ccc	.
(>8C\L	.	8b\L 8ee 8ff# 8bb	.
8E-\	.	8a\@ 8aa@	.
8F#\	.	8.cc\ 8.ccc	.
8A\J)	.	.	.
.	.	16a\Jk) 16cc 16ee 16aa	.
=210	=210	=210	=210
8GG\L	.	8a\ 8cc\ 8ffn\ 8aa\	.
8C\	.	8r	.
8En\	.	[<4g\ [<\4b [>\4een [>\4gg	.
8G\J	.	.	.
4.G\	.	8g\L] 8b\] 8ee\] 8gg\]	.
.	.	8g#X\ 8cc\ 8ee\ 8gg#X\	.
.	.	8a\ 8cc\ 8ff\ 8aa\	.
8GG/	.	8dd\J 8ff\ 8aa\ 8ddd\	.
=211	=211	=211	=211
*^	*	*	*
4..c/ 4..f	[<1GG	.	(>8a\L 8cc\ 8ff\ 8aa\	.
.	.	.	8g#X\ 8cc\ 8ff\ 8gg#X\	.
.	.	.	8a\) 8cc\ 8ff\ 8aa\	.
.	.	.	16r	.
16c/ 16f	.	.	16dd\Jk 16ff\ 16ddd\	.
!	!	!	!LO:N:vis=4.	!
8A/L 8c/ 8f/ 8a/	.	.	4..dd\ 4..ff\ 4..ddd\	.
8G#X/ 8g#X	.	.	.	.
8A/ 8a	.	.	.	.
16r	.	.	.	.
16d/Jk 16f	.	.	16a\ 16cc\ 16ff\ 16aa\	.
=212	=212	=212	=212	=212
4c/ 4f	1GG]	.	(>8a\L 8cc\ 8ff\ 8aa\	.
.	.	.	8g#X\ 8cc\ 8ff\ 8gg#X\	.
4r	.	.	8a\) 8cc\ 8ff\ 8aa\	.
.	.	.	16r	.
.	.	.	16dd\Jk 16ff\ 16ddd\	.
8A/L 8c 8f 8a	.	.	4..dd\ 4..ff\ 4..ddd\	.
8G#X/ 8g#X	.	.	.	.
8A/ 8a	.	.	.	.
16r	.	.	.	.
16d/Jk 16f	.	.	16a\ 16cc 16ff 16aa	.
!!LO:LB:g=original
=213	=213	=213	=213	=213
!	!	!	!LO:ART:color=blue	!
8GG/	1GG	.	2a^>\ 2cc 2ff 2aa	.
8r	.	.	.	.
!LO:TUP:a:problem=klamra łukowa	!	!	!	!
!LO:S:color=blue	!	!	!	!
(<12D/L	.	.	.	.
12F/	.	.	.	.
12A/J	.	.	.	.
!	!	!	!LO:ART:color=blue	!
8c/)	.	.	2a-X^>\ 2cc 2ff 2aa-X	.
8r	.	.	.	.
*Xtuplet	*	*	*	*
12f>\L	.	.	.	.
12a-X>\	.	.	.	.
12cc>\J	.	.	.	.
=214	=214	=214	=214	=214
!	!	!	!LO:ART:color=blue	!
8GG/	1GG	.	2g^>\ 2cc 2ff 2gg	.
8r	.	.	.	.
*tuplet	*	*	*	*
!LO:TUP:b:problem=klamra łukowa	!	!	!	!
12D/L	.	.	.	.
12F/	.	.	.	.
12G/J	.	.	.	.
!	!	!	!LO:ART:color=blue	!
8B\	.	.	2g\ 2b 2ff 2gg^>	.
8r	.	.	.	.
!!mixed beam:problem
!LO:TX:t=P:problem=mixed beam	!	!	!	!
!LO:TUP:b:problem=klamra łukowa	!	!	!	!
12d/L	.	.	.	.
12f>/	.	.	.	.
12g>/J	.	.	.	.
*v	*v	*	*	*
=215	=215	=215	=215
8CC/ 8C	.	2g\ 2cc 2ee 2gg	.
8r	.	.	.
*Xtuplet	*	*	*
!LO:TUP:b:problem=klamra łukowa	!	!	!
12CC/L 12C	.	.	.
12GG/ 12E	.	.	.
12GG/J 12G	.	.	.
8.AA/L 8.A	.	4..e\ 4..a 4..cc 4..ee	.
16AAA/K 16AA	.	.	.
8.AAA/ 8.AA	.	.	.
16DD/Jk 16D	.	16f\ 16a 16dd 16ff	.
=216	=216	=216	=216
*	*	*^	*
*	*	*	*^	*
8DD/ 8D	.	8a 8dd/ 8ff	8.f\L 8.a	4ryy	.
8r	.	8ryy	.	.	.
.	.	.	16a\Jk	.	.
(<2FF/ (>2F	.	2cc/ 2dd	(>8.a\L	2d\	.
.	.	.	16a-X\Jk)	.	.
.	.	.	4a-\	.	.
4GG/) 4G)	.	4g/ 4b 4dd	4d\	4ryy	.
*	*	*v	*v	*v	*
!!LO:LB:g=original
=217	=217	=217	=217
8CC/ 8C/	.	2g\ 2cc\ 2ee\ 2gg\	.
8r	.	.	.
!LO:TUP:b:problem=klamra łukowa	!	!	!
12CC/L 12C/	.	.	.
12EE/ 12E/	.	.	.
12GG/J 12G/	.	.	.
8.AA/L 8.A/	.	4.e\ 4.a\ 4.cc\ 4.ee\	.
16AAA/K 16AA/	.	.	.
8.AAA/ 8.AA/	.	.	.
.	.	8f\ 8a\ 8dd\ 8ff\	.
16DD/Jk 16D/	.	.	.
=218	=218	=218	=218
*	*	*^	*
*	*	*	*^	*
8DD/ 8D	.	8f\ 8a\ 8dd\ 8ff\	4ryy	4ryy	.
8r	.	8r	.	.	.
(<2FF/ (>2F	.	(<8.a\L	2cc/ 2dd	2d\	.
.	.	16a-X\Jk)	.	.	.
.	.	4a-\	.	.	.
8.GG/L) 8.G)	.	8.d\L 8.g\ 8.b\ 8.dd\	4ryy	4ryy	.
16EE/Jk 16E	.	16e\Jk 16g\ 16b\ 16ee\	.	.	.
=219	=219	=219	=219	=219	=219
8DD/ 8D	.	8f\ 8a\ 8dd\ 8ff\	4ryy	4ryy	.
8r	.	8r	.	.	.
(<2FF/ (>2F	.	(>8.a\L	2cc/ 2dd	2d\	.
.	.	16a-X\Jk)	.	.	.
.	.	4a-\	.	.	.
8.GG/L) 8.G)	.	8.d\L 8.g 8.b 8.dd	4ryy	4ryy	.
16EE/Jk 16E	.	16e\Jk 16g 16b 16ee	.	.	.
*	*	*v	*v	*v	*
=220	=220	=220	=220
*^	*	*	*
8.r	2..DD\ 2..D	.	2..f\ 2..a 2..dd 2..ff	.
16F/	.	.	.	.
*tuplet	*	*	*	*
!LO:TUP:b:problem=klamra łukowa	!	!	!	!
12F/L	.	.	.	.
12A/	.	.	.	.
12d/J	.	.	.	.
4f/	.	.	.	.
4r	.	.	.	.
.	8CC\ 8C	.	8f#X\ 8a 8dd 8ff#X	.
!!LO:LB:g=original
=221	=221	=221	=221	=221
8.r	2..CC\ 2..C	.	2..f\ 2..a 2..dd 2..ff	.
16F#X/	.	.	.	.
*Xtuplet	*	*	*	*
!LO:TUP:b:problem=klamra łukowa	!	!	!	!
12F#/L	.	.	.	.
12A/	.	.	.	.
12d/J	.	.	.	.
4f#X/	.	.	.	.
4r	.	.	.	.
.	8BBB\ 8BB	.	8f\ 8b 8dd 8ff	.
=222	=222	=222	=222	=222
8.r	2..BBB\ 2..BB	.	2..f#X\ 2..b 2..dd 2..ff#X	.
16F#X/	.	.	.	.
*tuplet	*	*	*	*
!LO:TUP:b:problem=klamra łukowa	!	!	!	!
12F#/L	.	.	.	.
12A/	.	.	.	.
12d/J	.	.	.	.
4f#X/	.	.	.	.
4r	.	.	.	.
.	8AAA\ 8AA	.	8f#\ 8cc 8dd 8ff#	.
=223	=223	=223	=223	=223
8.r	2..AAA\ 2..AA	.	2..f#X\ 2..cc 2..dd 2..ff#X	.
16F#X/	.	.	.	.
!LO:TUP:b:problem=klamra łukowa	!	!	!	!
12F#/L	.	.	.	.
12A/	.	.	.	.
12d/J	.	.	.	.
4f#X/	.	.	.	.
4r	.	.	.	.
.	8GGG\ 8GG	.	8g\ 8cc 8ee 8gg	.
*v	*v	*	*	*
=224	=224	=224	=224
*tremolo	*	*	*
(<16GG/LL	.	4.g\ 4.cc 4.ee 4.gg	.
16G/	.	.	.
16GG/	.	.	.
16G/	.	.	.
16GG/	.	.	.
16G/	.	.	.
16GG/	.	16e\LL 16g 16cc 16ee	.
16G/JJ)	.	16e\JJ 16g 16cc 16ee	.
(<16GG/LL	.	8e\L 8g 8cc 8ee	.
16G/	.	.	.
16GG/	.	8c\ 8e 8g 8cc	.
16G/	.	.	.
16GG/	.	8c\ 8e 8g 8cc	.
16G/	.	.	.
16GG/	.	8c\J 8e 8g	.
16G/JJ)	.	.	.
!!LO:LB:g=original
=225	=225	=225	=225
(<16GG/LL	.	8c/L 8e/ 8g/	.
16G/	.	.	.
16GG/	.	8c/ 8e/	.
16G/	.	.	.
16GG/	.	8c/ 8e/ 8g/	.
16G/	.	.	.
16GG/	.	8c/J 8e/ 8g/ 8cc/	.
16G/JJ)	.	.	.
(<16GG/LL	.	8e\ 8g\ 8cc\ 8ee\	.
16G/	.	.	.
16GG/	.	8r	.
16G/	.	.	.
*	*	*tuplet	*
!	!	!LO:TUP:a:problem=klamra łukowa	!
16GG/	.	12c\L 12e\ 12g\ 12cc\	.
16G/	.	.	.
.	.	12e\ 12g\ 12cc\ 12ee\	.
16GG/	.	.	.
.	.	12g\J 12cc\ 12ee\ 12gg\	.
16G/JJ)	.	.	.
=226	=226	=226	=226
!	!	!LO:N:vis=4..	!
(<16GG/LL	.	4.a\ 4.cc#X\ 4.ee\ 4.aa\	.
16G/	.	.	.
16GG/	.	.	.
16G/	.	.	.
16GG/	.	.	.
16G/	.	.	.
16GG/	.	16e\LL 16a\ 16cc#\ 16ee\	.
16G/JJ)	.	16e\JJ 16a\ 16cc#\ 16ee\	.
(<16GG/LL	.	8e/L 8a/ 8cc#/ 8ee/	.
16G/	.	.	.
16GG/	.	8c#X/ 8e/ 8a/ 8cc#/	.
16G/	.	.	.
16GG/	.	8c#/ 8e/ 8a/ 8cc#/	.
16G/	.	.	.
16GG/	.	8A/J 8c#/ 8e/ 8a/	.
16G/JJ)	.	.	.
=227	=227	=227	=227
!	!	!LO:ACC:color=blue	!
(<16GG/LL	.	8A/L 8c#X/ 8e/ 8a/	.
16G/	.	.	.
16GG/	.	8A/ 8c#/ 8e/	.
16G/	.	.	.
16GG/	.	8A/ 8c#/ 8e/ 8a/	.
16G/	.	.	.
!	!	!LO:ACC:color=blue	!
16GG/	.	8c#/J 8e/ 8a/ 8cc#X/	.
16G/JJ)	.	.	.
(<16GG/LL	.	8e/ 8a/ 8cc#/ 8ee/	.
16G/	.	.	.
16GG/	.	8r	.
16G/	.	.	.
!	!	!LO:TUP:a:problem=klamra łukowa	!
16GG/	.	12c#\L 12e\ 12a\ 12cc#\	.
16G/	.	.	.
.	.	12e\ 12a\ 12cc#\ 12ee\	.
16GG/	.	.	.
.	.	12a\J 12cc#\ 12ee\ 12aa\	.
16G/JJ)	.	.	.
=228	=228	=228	=228
[<4DD/ [>4D	.	8a\L 8ccn\ 8ff\ 8aa\	.
.	.	16a\L 16cc\ 16ff\	.
.	.	16a\JJ 16cc\ 16ff\	.
8DD/L] 8D]	.	8a\ 8cc\ 8ff\	.
16DD/L 16D	.	8r	.
16DD/JJ 16D	.	.	.
4.GG/ 4.G	.	8a\L 8cc\ 8ff\	.
.	.	16f\L 16a\ 16dd\	.
.	.	16f\JJ 16a\ 16dd\	.
.	.	8f/ 8a/ 8dd/	.
*Xtremolo	*	*	*
16GG/LL@ 16G@	.	8r	.
16GG/JJ@ 16G@	.	.	.
!!LO:LB:g=original
=229	=229	=229	=229
[<4DD/ [>4D	.	8a\L 8cc 8ff	.
.	.	16f\L 16a 16dd	.
.	.	16f\JJ 16a 16dd	.
8DD/L] 8D]	.	8f/ 8a 8dd	.
16DD/L 16D	.	8r	.
16DD/JJ 16D	.	.	.
4.GG/ 4.G	.	8f/L 8g 8b 8dd	.
.	.	16d/L 16f 16g 16b	.
.	.	16d/JJ 16f 16g 16b	.
.	.	8d/ 8f 8g 8b	.
!	!	!LO:TX:b:t=Vi:color=blue	!
!	!	!LO:TX:t=P:problem=3 takty przekreślone	!
16GG\LL@ 16G@	.	8r	.
16GG\JJ@ 16G@	.	.	.
!!LO:PB:g=original
=230	=230	=230	=230
4.C\ 4.c\	.	8g\L 8cc\ 8ee\ 8gg\	.
.	.	16c\L 16e\ 16g\ 16cc\	.
.	.	16c\JJ 16e\ 16g\ 16cc\	.
.	.	[<4c\ [<\4e [>\4g [>\4cc	.
16BB\LL 16B\	.	.	.
16BB\JJ 16B\	.	.	.
4BB\ 4B\	.	8c\L] 8e\] 8g\] 8cc\]	.
.	.	16c\L 16e\ 16g\ 16cc\	.
.	.	16c\JJ 16e\ 16g\ 16cc\	.
!LO:TUP:a:problem=klamra łukowa	!	!LO:TUP:a:problem=klamra łukowa	!
12AA\L 12A\	.	12c\L 12e\ 12g\ 12cc\	.
12GG\ 12G\	.	12e\ 12g\ 12cc\ 12ee\	.
12EE\J 12E\	.	12g\J 12cc\ 12ee\ 12gg\	.
=231	=231	=231	=231
*	*	*tremolo	*
(>2AA\ 2A\	.	16ee\LL 16ccc	.
.	.	16cc\	.
.	.	16ee\ 16ccc	.
.	.	16cc\	.
.	.	16ee\ 16ccc	.
.	.	16cc\	.
.	.	16ee\ 16ccc	.
.	.	16cc\JJ	.
4..GG\ 4..G\	.	(>16ee\LL 16ccc	.
.	.	16cc\	.
.	.	16ee\ 16ccc	.
.	.	16cc\	.
.	.	16ee\ 16ccc	.
.	.	16cc\	.
.	.	16ee\ 16ccc	.
16FF#X\) 16F#X\	.	16cc\JJ)	.
=232	=232	=232	=232
(<2FF#X/ (>/2F#X	.	(>16ee\LL 16ccc	.
.	.	16cc\	.
.	.	16ee\ 16ccc	.
.	.	16cc\	.
.	.	16ee\ 16ccc	.
.	.	16cc\	.
.	.	16ee\ 16ccc	.
.	.	16cc\JJ)	.
8GG/L)) 8G/	.	(>16ee\LL 16ccc	.
.	.	16cc\	.
8GG'</ 8G/	.	16ee\ 16ccc	.
.	.	16cc\	.
8EE'</ 8E/	.	16ee\ 16ccc	.
.	.	16cc\	.
8CC'</J 8C/	.	16ee\ 16ccc	.
.	.	16cc\JJ)	.
*	*	*Xtremolo	*
=233	=233	=233	=233
8FF/L 8F/	.	8cc\L 8dd 8ccc	.
8FF#X/ 8F#X/	.	8cc\ 8dd#X 8ccc	.
8.GG/ 8.G/	.	8.cc\ 8.ee 8.ccc	.
16DD/Jk 16D/	.	16cc\Jk 16ff 16ccc	.
4.DD/ 4.D/	.	4.cc\ 4.ff 4.ccc	.
8DD#X/ 8D#X/	.	8cc\ 8ff#X 8ccc	.
!!LO:LB:g=original
=234	=234	=234	=234
!	!	!LO:TX:t=P:problem=system poprzeda przekreślony takt	!
!	!	!LO:TX:a:t=de:color=blue:rj	!
8C\L 8c	.	8cc\ 8ee\ 8gg\ 8ccc\	.
8BB\ 8B	.	16c/LL	.
.	.	16c/JJ	.
*	*	*Xtuplet	*
8AA\ 8A	.	12c/L	.
.	.	12e/	.
8BB\J 8B	.	.	.
.	.	12g/J	.
8C\L 8c	.	12e\L 12g\ 12cc\	.
.	.	12g\ 12cc\ 12ee\	.
8BB\ 8B	.	.	.
.	.	12cc\J 12ee\ 12gg\	.
8AA\ 8A	.	4cc\ 4ee\ 4gg\ 4ccc\	.
8BB\J 8B	.	.	.
=235	=235	=235	=235
*rep	*	*	*
8C\L 8c	.	8ee\ 8gg\ 8ccc\ 8eee\	.
8BB\ 8B	.	16c/LL 16e/	.
.	.	16c/JJ 16e/	.
8AA\ 8A	.	12c/L 12e/	.
.	.	12c/ 12e/ 12g/	.
8BB\J 8B	.	.	.
.	.	12e/J 12g 12cc	.
8C\L 8c	.	12e\L 12g\ 12cc\ 12ee\	.
.	.	12g\ 12cc\ 12ee\ 12gg\	.
8BB\ 8B	.	.	.
.	.	12cc\J 12ee\ 12gg\ 12ccc\	.
8AA\ 8A	.	8.ee\L 8.gg\ 8.ccc\ 8.eee\	.
8BB\J 8B	.	.	.
.	.	16ee\Jk 16gg\ 16ccc\ 16eee\	.
*Xrep	*	*	*
=236	=236	=236	=236
*tremolo	*	*	*
16CC/LL	.	4cc\ 4ee\ 4gg\ 4ccc\	.
16C/	.	.	.
16CC/	.	.	.
16C/	.	.	.
16CC/	.	4r	.
16C/	.	.	.
16CC/	.	.	.
16C/	.	.	.
16CC/	.	4cc\ 4ee\ 4gg\ 4ccc\	.
16C/	.	.	.
16CC/	.	.	.
16C/JJ	.	.	.
*Xtremolo	*	*	*
8.CC/L@	.	8.r	.
16CC/Jk@ 16C@	.	16c/ 16e/ 16g/ 16cc/	.
=237	=237	=237	=237
!LO:ART:color=blue	!	!LO:ART:color=blue	!
1CC@;< 1C@	.	2c;>/ 2e/ 2g/ 2cc/	.
.	.	2ryy	.
==	==	==	==
*-	*-	*-	*-
!!!system-decoration: [(g1)]
!!!RDF**kern: > = above
!!!RDF**kern: < = below
!!!RDF**kern: @ = marked note, color=blue
!!!ENC: Filip Voros
!!!END: 2021-10-24
!!!EED: Jędrzej Mróz
!!!ESR: 2021-10-28
